$P38013%
(NAME OF POST:POWERMILL_OKUMA_MU400VA_OSP_P200_REV12_ROBOT)
(MASKINE:MU-400VA)
(TEGN. NR.:NT38013REV.02)
(TEGN. DATO:30-05-16)
(PRODUKTNAVN:TOOTHED RIM FOR GEAR WCC 238)
(LAVET AF:ERYK DEN 11.09.16 KL.5:58:11 PM)
(REVIDERET AF:### DEN ##-##-##)
(OPERATION:MILLING)
(------------------------------------------------------------)
( T NR :TOOL NAME                                  : DIA :OH )
(------------------------------------------------------------)
(  T240: D1,8 HM BOR 8D                            : 2   : 32)
(  T935: T935: 1,5MM EM A56 0150 050 0400 120 B0909: 1.5 :   )
(  T939: T939: D6 60° HM REJFER                    : 6   : 30)
(  T936: T936: D2 H8 HSS REAMER                    : 1.5 :   )
(  T937: T937: Q2 HM BOR 20XD                      : 2   : 45)
(  T938: T938: Q2 HM SLETFRASER WALTER H3027118-2  : 2   : 21)
(  T143: BM1_2_CAR_2L4_L13_SL                      : 1.2 : 30)
(------------------------------------------------------------)
(-----------------------------------)
(T NR:N NUM:TOOLPATH NAME           )
(-----------------------------------)
(T240: NP1 : PREDRILL Q2 SIDE 1     )
(T935: NP2 : SEMIFINISH Q2 SIDE 1   )
(T939: NP3 : CHAMFER BEFORE REAMER  )
(T936: NP4 : REAM Q2 SIDE 1         )
(T937: NP5 : LONG DRILL SIDE 1      )
(T938: NP6 : FINISH Q3 SIDE 1       )
(T939: NP7 : CHAMFER SIDE 1         )
(T240: NP8 : PREDRILL Q2 SIDE 1_1   )
(T935: NP9 : SEMIFINISH Q2 SIDE 1_1 )
(T939: NP10: CHAMFER BEFORE REAMER_1)
(T936: NP11: REAM Q2 SIDE 1_1       )
(T937: NP12: LONG DRILL SIDE 2      )
(T938: NP13: FINISH Q3 SIDE 2       )
(T939: NP14: CHAMFER SIDE 2         )
(T143: NP15: WIREWAY 1              )
(T143: NP16: WIREWAY 2              )
(-----------------------------------)
( ESTIMATED CUTTING TIME = 1959.39)
VZOFX[1]=0
VZOFY[1]=0
VZOFZ[1]=99
VZOFA[1]=0
VZOFC[1]=0
(PROBE)
T200M6
G56 HA DA Z500.0
G15 H1
CALL OO18
G0 X0 Y0
G114 Z50
CALL OO10 PMOD=11 PELI=64 PIN=30
CALL OO20 PHN=1 PX=0
G0 Z500
CALL OO88 PX=-32 PY=0 PZ=0 PA=-90 PC=90 PH=1 PP=3
G15 H3
G0 X0 Y0
A-90 C90
G114 Z20
CALL OO10 PMOD=6 PDI=55 PZIN=24
CALL OO20 PHN=3 PX=0 PY=0
G0 Z500
CALL OO88 PX=32 PY=0 PZ=0 PA=-90 PC=-90 PH=1 PP=4
G15 H4
G0 X0 Y0
A-90 C-90
G114 Z20
CALL OO10 PMOD=6 PDI=55 PZIN=24
CALL OO20 PHN=4 PX=0 PY=0
VC4=VS29
VC5=VS28
VZOFY[1]=VZOFY[1]-VC4
VZOFZ[1]=VZOFZ[1]-VC5
G0 Z500
CALL OO19
M1
( TOOL NO.    : )
G0 Z500. 
(TRIGGER)
IF[VTLCN EQ 240]NP1
T240 M6
(PREDRILL Q2 SIDE 1)
NP1
CALL OO88 PX=-32 PY=0 PZ=0 PA=-90 PC=90 PH=1 PP=2 (WORKPLANE:CAM1 90DEG)
G15 H2T935 
(T240 :D1,8 HM BOR 8D)
IF[VTLCN EQ 200]NALAM
G17
VC196=VTLCN
VC190=VTOFH[VC196]
VC191= VTOFD[VC196]
N1020
G56 HA DA Z500 S6400 M3 
(START 3P2)
G0 X25.299 Y0.265 
A-90 C90
Z31.001 M50 
M10 
M26 
G71 Z31.001 M53
G81 X25.299 Y0.265 Z-8.8 R3.7 P0 F580 
X21.479 Y13.369 
X-21.754 Y12.917 
X-25.299 Y-0.265 
G0 Z500 M54
(END TOOLPATH)
G0 Z500
G120
M1
T935 M6
( TOOL NO.    : )
(SEMIFINISH Q2 SIDE 1)
NP2
CALL OO88 PX=-32 PY=0 PZ=0 PA=-90 PC=90 PH=1 PP=2 (WORKPLANE:CAM1 90DEG)
G15 H2T939 
(T935 :T935: 1,5MM EM A56 0150 050 0400 120 B0909)
IF[VTLCN EQ 200]NALAM
G17
VC196=VTLCN
VC190=VTOFH[VC196]
VC191= VTOFD[VC196]
N1040
G56 HA DA Z500 S14000 M3 
(START 3P2)
G0 X25.299 Y0.265 
A-90 C90
Z31.001 M50 
G0 Z0.7 
G1 X25.529 F140 
X25.507 Y0.362 Z0.686 
X25.446 Y0.441 Z0.672 
X25.358 Y0.487 Z0.658 
X25.259 Y0.491 Z0.644 
X25.167 Y0.453 Z0.631 
X25.099 Y0.38 Z0.617 
X25.069 Y0.285 Z0.603 
X25.083 Y0.186 Z0.589 
X25.136 Y0.102 Z0.575 
X25.22 Y0.049 Z0.561 
X25.319 Y0.036 Z0.547 
X25.414 Y0.066 Z0.533 
X25.487 Y0.133 Z0.519 
X25.525 Y0.225 Z0.506 
X25.521 Y0.325 Z0.492 
X25.475 Y0.413 Z0.478 
X25.395 Y0.474 Z0.464 
X25.298 Y0.495 Z0.45 
X25.201 Y0.473 Z0.436 
X25.122 Y0.412 Z0.422 
X25.076 Y0.324 Z0.408 
X25.072 Y0.224 Z0.394 
X25.111 Y0.133 Z0.38 
X25.184 Y0.065 Z0.367 
X25.279 Y0.036 Z0.353 
X25.378 Y0.049 Z0.339 
X25.462 Y0.103 Z0.325 
X25.515 Y0.187 Z0.311 
X25.528 Y0.286 Z0.297 
X25.497 Y0.381 Z0.283 
X25.43 Y0.454 Z0.269 
X25.338 Y0.492 Z0.255 
X25.238 Y0.487 Z0.242 
X25.15 Y0.441 Z0.228 
X25.09 Y0.361 Z0.214 
X25.069 Y0.264 Z0.2 
X25.091 Y0.167 Z0.186 
X25.151 Y0.088 Z0.172 
X25.24 Y0.043 Z0.158 
X25.339 Y0.039 Z0.144 
X25.431 Y0.077 Z0.13 
X25.498 Y0.151 Z0.117 
X25.528 Y0.246 Z0.103 
X25.514 Y0.345 Z0.089 
X25.46 Y0.428 Z0.075 
X25.376 Y0.481 Z0.061 
X25.277 Y0.494 Z0.047 
X25.183 Y0.464 Z0.033 
X25.11 Y0.396 Z0.019 
X25.072 Y0.304 Z0.005 
X25.077 Y0.204 Z-0.009 
X25.123 Y0.116 Z-0.022 
X25.203 Y0.056 Z-0.036 
X25.3 Y0.035 Z-0.05 
X25.397 Y0.057 Z-0.064 
X25.476 Y0.118 Z-0.078 
X25.521 Y0.207 Z-0.092 
X25.525 Y0.306 Z-0.106 
X25.486 Y0.398 Z-0.12 
X25.412 Y0.465 Z-0.134 
X25.317 Y0.494 Z-0.147 
X25.219 Y0.481 Z-0.161 
X25.135 Y0.427 Z-0.175 
X25.082 Y0.342 Z-0.189 
X25.07 Y0.243 Z-0.203 
X25.1 Y0.149 Z-0.217 
X25.168 Y0.076 Z-0.231 
X25.26 Y0.038 Z-0.245 
X25.36 Y0.043 Z-0.259 
X25.448 Y0.09 Z-0.272 
X25.508 Y0.169 Z-0.286 
X25.529 Y0.267 Z-0.3 
X25.506 Y0.364 Z-0.314 
X25.445 Y0.442 Z-0.328 
X25.356 Y0.488 Z-0.342 
X25.257 Y0.491 Z-0.356 
X25.165 Y0.452 Z-0.37 
X25.099 Y0.378 Z-0.384 
X25.069 Y0.283 Z-0.397 
X25.083 Y0.184 Z-0.411 
X25.137 Y0.101 Z-0.425 
X25.222 Y0.048 Z-0.439 
X25.321 Y0.036 Z-0.453 
X25.415 Y0.067 Z-0.467 
X25.488 Y0.135 Z-0.481 
X25.525 Y0.227 Z-0.495 
X25.52 Y0.326 Z-0.509 
X25.473 Y0.414 Z-0.523 
X25.394 Y0.474 Z-0.536 
X25.296 Y0.495 Z-0.55 
X25.199 Y0.472 Z-0.564 
X25.121 Y0.411 Z-0.578 
X25.076 Y0.322 Z-0.592 
X25.073 Y0.223 Z-0.606 
X25.112 Y0.131 Z-0.62 
X25.186 Y0.065 Z-0.634 
X25.281 Y0.036 Z-0.648 
X25.379 Y0.05 Z-0.661 
X25.463 Y0.104 Z-0.675 
X25.516 Y0.189 Z-0.689 
X25.528 Y0.287 Z-0.703 
X25.497 Y0.382 Z-0.717 
X25.429 Y0.455 Z-0.731 
X25.336 Y0.492 Z-0.745 
X25.237 Y0.486 Z-0.759 
X25.149 Y0.439 Z-0.773 
X25.089 Y0.36 Z-0.786 
X25.069 Y0.262 Z-0.8 
X25.091 Y0.165 Z-0.814 
X25.153 Y0.087 Z-0.828 
X25.242 Y0.042 Z-0.842 
X25.341 Y0.039 Z-0.856 
X25.433 Y0.078 Z-0.87 
X25.499 Y0.152 Z-0.884 
X25.528 Y0.248 Z-0.898 
X25.514 Y0.346 Z-0.911 
X25.459 Y0.43 Z-0.925 
X25.375 Y0.482 Z-0.939 
X25.276 Y0.494 Z-0.953 
X25.181 Y0.463 Z-0.967 
X25.109 Y0.394 Z-0.981 
X25.072 Y0.302 Z-0.995 
X25.077 Y0.203 Z-1.009 
X25.124 Y0.115 Z-1.023 
X25.204 Y0.055 Z-1.037 
X25.302 Y0.035 Z-1.05 
X25.399 Y0.058 Z-1.064 
X25.477 Y0.119 Z-1.078 
X25.522 Y0.208 Z-1.092 
X25.525 Y0.308 Z-1.106 
X25.485 Y0.399 Z-1.12 
X25.411 Y0.466 Z-1.134 
X25.316 Y0.494 Z-1.148 
X25.217 Y0.48 Z-1.162 
X25.134 Y0.425 Z-1.175 
X25.081 Y0.341 Z-1.189 
X25.07 Y0.242 Z-1.203 
X25.101 Y0.147 Z-1.217 
X25.169 Y0.075 Z-1.231 
X25.262 Y0.038 Z-1.245 
X25.361 Y0.044 Z-1.259 
X25.449 Y0.091 Z-1.273 
X25.508 Y0.171 Z-1.287 
X25.529 Y0.268 Z-1.3 
X25.506 Y0.365 Z-1.314 
X25.444 Y0.443 Z-1.328 
X25.355 Y0.488 Z-1.342 
X25.255 Y0.491 Z-1.356 
X25.164 Y0.451 Z-1.37 
X25.098 Y0.377 Z-1.384 
X25.069 Y0.281 Z-1.398 
X25.084 Y0.183 Z-1.412 
X25.139 Y0.1 Z-1.426 
X25.223 Y0.048 Z-1.439 
X25.322 Y0.036 Z-1.453 
X25.417 Y0.068 Z-1.467 
X25.489 Y0.136 Z-1.481 
X25.526 Y0.229 Z-1.495 
X25.52 Y0.328 Z-1.509 
X25.472 Y0.416 Z-1.523 
X25.392 Y0.475 Z-1.537 
X25.295 Y0.495 Z-1.551 
X25.198 Y0.472 Z-1.564 
X25.12 Y0.41 Z-1.578 
X25.075 Y0.321 Z-1.592 
X25.073 Y0.221 Z-1.606 
X25.113 Y0.13 Z-1.62 
X25.187 Y0.064 Z-1.634 
X25.283 Y0.035 Z-1.648 
X25.381 Y0.05 Z-1.662 
X25.464 Y0.105 Z-1.676 
X25.516 Y0.19 Z-1.689 
X25.527 Y0.289 Z-1.703 
X25.496 Y0.384 Z-1.717 
X25.427 Y0.456 Z-1.731 
X25.334 Y0.492 Z-1.745 
X25.235 Y0.486 Z-1.759 
X25.148 Y0.438 Z-1.773 
X25.088 Y0.358 Z-1.787 
X25.069 Y0.261 Z-1.801 
X25.092 Y0.164 Z-1.814 
X25.154 Y0.086 Z-1.828 
X25.243 Y0.042 Z-1.842 
X25.343 Y0.039 Z-1.856 
X25.434 Y0.079 Z-1.87 
X25.5 Y0.154 Z-1.884 
X25.528 Y0.249 Z-1.898 
X25.513 Y0.348 Z-1.912 
X25.458 Y0.431 Z-1.926 
X25.373 Y0.483 Z-1.94 
X25.274 Y0.494 Z-1.953 
X25.18 Y0.462 Z-1.967 
X25.108 Y0.393 Z-1.981 
X25.071 Y0.3 Z-1.995 
X25.078 Y0.201 Z-2.009 
X25.125 Y0.114 Z-2.023 
X25.206 Y0.055 Z-2.037 
X25.303 Y0.035 Z-2.051 
X25.4 Y0.059 Z-2.065 
X25.478 Y0.121 Z-2.078 
X25.522 Y0.21 Z-2.092 
X25.524 Y0.31 Z-2.106 
X25.484 Y0.401 Z-2.12 
X25.409 Y0.467 Z-2.134 
X25.314 Y0.494 Z-2.148 
X25.215 Y0.479 Z-2.162 
X25.133 Y0.424 Z-2.176 
X25.081 Y0.339 Z-2.19 
X25.07 Y0.24 Z-2.203 
X25.102 Y0.146 Z-2.217 
X25.171 Y0.074 Z-2.231 
X25.264 Y0.038 Z-2.245 
X25.363 Y0.044 Z-2.259 
X25.45 Y0.092 Z-2.273 
X25.509 Y0.172 Z-2.287 
X25.529 Y0.27 Z-2.301 
X25.505 Y0.367 Z-2.315 
X25.442 Y0.444 Z-2.328 
X25.353 Y0.488 Z-2.342 
X25.254 Y0.49 Z-2.356 
X25.162 Y0.45 Z-2.37 
X25.097 Y0.375 Z-2.384 
X25.069 Y0.28 Z-2.398 
X25.084 Y0.181 Z-2.412 
X25.14 Y0.099 Z-2.426 
X25.225 Y0.047 Z-2.44 
X25.324 Y0.036 Z-2.454 
X25.418 Y0.069 Z-2.467 
X25.49 Y0.138 Z-2.481 
X25.526 Y0.23 Z-2.495 
X25.519 Y0.33 Z-2.509 
X25.471 Y0.417 Z-2.523 
X25.391 Y0.476 Z-2.537 
X25.293 Y0.495 Z-2.551 
X25.196 Y0.471 Z-2.565 
X25.119 Y0.408 Z-2.579 
X25.075 Y0.319 Z-2.592 
X25.073 Y0.219 Z-2.606 
X25.114 Y0.128 Z-2.62 
X25.189 Y0.063 Z-2.634 
X25.284 Y0.035 Z-2.648 
X25.383 Y0.051 Z-2.662 
X25.465 Y0.106 Z-2.676 
X25.517 Y0.192 Z-2.69 
X25.527 Y0.291 Z-2.704 
X25.495 Y0.385 Z-2.717 
X25.426 Y0.457 Z-2.731 
X25.333 Y0.492 Z-2.745 
X25.233 Y0.485 Z-2.759 
X25.146 Y0.437 Z-2.773 
X25.088 Y0.357 Z-2.787 
X25.069 Y0.259 Z-2.801 
X25.093 Y0.162 Z-2.815 
X25.155 Y0.085 Z-2.829 
X25.245 Y0.041 Z-2.843 
X25.345 Y0.04 Z-2.856 
X25.435 Y0.08 Z-2.87 
X25.501 Y0.155 Z-2.884 
X25.528 Y0.251 Z-2.898 
X25.513 Y0.349 Z-2.912 
X25.457 Y0.432 Z-2.926 
X25.371 Y0.483 Z-2.94 
X25.272 Y0.493 Z-2.954 
X25.178 Y0.461 Z-2.968 
X25.107 Y0.392 Z-2.981 
X25.071 Y0.299 Z-2.995 
X25.078 Y0.199 Z-3.009 
X25.127 Y0.112 Z-3.023 
X25.207 Y0.054 Z-3.037 
X25.305 Y0.035 Z-3.051 
X25.402 Y0.059 Z-3.065 
X25.479 Y0.122 Z-3.079 
X25.522 Y0.212 Z-3.093 
X25.524 Y0.311 Z-3.106 
X25.483 Y0.402 Z-3.12 
X25.408 Y0.467 Z-3.134 
X25.312 Y0.495 Z-3.148 
X25.214 Y0.479 Z-3.162 
X25.131 Y0.423 Z-3.176 
X25.08 Y0.337 Z-3.19 
X25.07 Y0.238 Z-3.204 
X25.103 Y0.144 Z-3.218 
X25.172 Y0.073 Z-3.231 
X25.265 Y0.037 Z-3.245 
X25.365 Y0.045 Z-3.259 
X25.452 Y0.093 Z-3.273 
X25.51 Y0.174 Z-3.287 
X25.529 Y0.272 Z-3.301 
X25.504 Y0.368 Z-3.315 
X25.441 Y0.445 Z-3.329 
X25.351 Y0.489 Z-3.343 
X25.252 Y0.49 Z-3.357 
X25.161 Y0.449 Z-3.37 
X25.096 Y0.374 Z-3.384 
X25.069 Y0.278 Z-3.398 
X25.085 Y0.18 Z-3.412 
X25.141 Y0.097 Z-3.426 
X25.227 Y0.046 Z-3.44 
X25.326 Y0.037 Z-3.454 
X25.42 Y0.069 Z-3.468 
X25.491 Y0.139 Z-3.482 
X25.526 Y0.232 Z-3.495 
X25.519 Y0.331 Z-3.509 
X25.47 Y0.418 Z-3.523 
X25.389 Y0.476 Z-3.537 
X25.291 Y0.495 Z-3.551 
X25.195 Y0.47 Z-3.565 
X25.118 Y0.407 Z-3.579 
X25.075 Y0.317 Z-3.593 
X25.074 Y0.218 Z-3.607 
X25.115 Y0.127 Z-3.62 
X25.19 Y0.062 Z-3.634 
X25.286 Y0.035 Z-3.648 
X25.384 Y0.051 Z-3.662 
X25.466 Y0.108 Z-3.676 
X25.517 Y0.193 Z-3.69 
X25.527 Y0.292 Z-3.704 
X25.494 Y0.386 Z-3.718 
X25.424 Y0.458 Z-3.732 
X25.331 Y0.493 Z-3.745 
X25.232 Y0.485 Z-3.759 
X25.145 Y0.436 Z-3.773 
X25.087 Y0.355 Z-3.787 
X25.069 Y0.257 Z-3.801 
X25.094 Y0.161 Z-3.815 
X25.157 Y0.084 Z-3.829 
X25.247 Y0.041 Z-3.843 
X25.346 Y0.04 Z-3.857 
X25.437 Y0.081 Z-3.871 
X25.502 Y0.157 Z-3.884 
X25.528 Y0.253 Z-3.898 
X25.512 Y0.351 Z-3.912 
X25.456 Y0.433 Z-3.926 
X25.37 Y0.484 Z-3.94 
X25.271 Y0.493 Z-3.954 
X25.177 Y0.46 Z-3.968 
X25.106 Y0.39 Z-3.982 
X25.071 Y0.297 Z-3.996 
X25.079 Y0.198 Z-4.009 
X25.128 Y0.111 Z-4.023 
X25.209 Y0.053 Z-4.037 
X25.307 Y0.035 Z-4.051 
X25.403 Y0.06 Z-4.065 
X25.48 Y0.123 Z-4.079 
X25.523 Y0.213 Z-4.093 
X25.524 Y0.313 Z-4.107 
X25.482 Y0.404 Z-4.121 
X25.406 Y0.468 Z-4.134 
X25.31 Y0.495 Z-4.148 
X25.212 Y0.478 Z-4.162 
X25.13 Y0.422 Z-4.176 
X25.08 Y0.336 Z-4.19 
X25.07 Y0.237 Z-4.204 
X25.104 Y0.143 Z-4.218 
X25.174 Y0.072 Z-4.232 
X25.267 Y0.037 Z-4.246 
X25.366 Y0.045 Z-4.26 
X25.453 Y0.094 Z-4.273 
X25.511 Y0.176 Z-4.287 
X25.528 Y0.274 Z-4.301 
X25.503 Y0.37 Z-4.315 
X25.44 Y0.447 Z-4.329 
X25.35 Y0.489 Z-4.343 
X25.25 Y0.49 Z-4.357 
X25.16 Y0.448 Z-4.371 
X25.095 Y0.372 Z-4.385 
X25.069 Y0.276 Z-4.398 
X25.086 Y0.178 Z-4.412 
X25.142 Y0.096 Z-4.426 
X25.228 Y0.046 Z-4.44 
X25.327 Y0.037 Z-4.454 
X25.421 Y0.07 Z-4.468 
X25.492 Y0.14 Z-4.482 
X25.526 Y0.234 Z-4.496 
X25.518 Y0.333 Z-4.51 
X25.469 Y0.42 Z-4.523 
X25.388 Y0.477 Z-4.537 
X25.29 Y0.495 Z-4.551 
X25.193 Y0.469 Z-4.565 
X25.117 Y0.406 Z-4.579 
X25.074 Y0.316 Z-4.593 
Y0.216 Z-4.607 
X25.116 Y0.126 Z-4.621 
X25.192 Y0.061 Z-4.635 
X25.288 Y0.035 Z-4.648 
X25.386 Y0.052 Z-4.662 
X25.468 Y0.109 Z-4.676 
X25.518 Y0.195 Z-4.69 
X25.527 Y0.294 Z-4.704 
X25.493 Y0.388 Z-4.718 
X25.423 Y0.459 Z-4.732 
X25.329 Y0.493 Z-4.746 
X25.23 Y0.484 Z-4.76 
X25.144 Y0.435 Z-4.774 
X25.086 Y0.354 Z-4.787 
X25.069 Y0.256 Z-4.801 
X25.094 Y0.159 Z-4.815 
X25.158 Y0.083 Z-4.829 
X25.248 Y0.041 Z-4.843 
X25.348 Y0.04 Z-4.857 
X25.438 Y0.082 Z-4.871 
X25.502 Y0.158 Z-4.885 
X25.528 Y0.254 Z-4.899 
X25.511 Y0.353 Z-4.912 
X25.454 Y0.434 Z-4.926 
X25.368 Y0.484 Z-4.94 
X25.269 Y0.493 Z-4.954 
X25.175 Y0.459 Z-4.968 
X25.105 Y0.389 Z-4.982 
X25.071 Y0.295 Z-4.996 
X25.079 Y0.196 Z-5.01 
X25.129 Y0.11 Z-5.024 
X25.21 Y0.053 Z-5.037 
X25.308 Y0.035 Z-5.051 
X25.405 Y0.061 Z-5.065 
X25.481 Y0.125 Z-5.079 
X25.523 Y0.215 Z-5.093 
Y0.315 Z-5.107 
X25.481 Y0.405 Z-5.121 
X25.405 Y0.469 Z-5.135 
X25.309 Y0.495 Z-5.149 
X25.211 Y0.477 Z-5.163 
X25.129 Y0.42 Z-5.176 
X25.079 Y0.334 Z-5.19 
X25.071 Y0.235 Z-5.204 
X25.105 Y0.141 Z-5.218 
X25.175 Y0.071 Z-5.232 
X25.269 Y0.037 Z-5.246 
X25.368 Y0.046 Z-5.26 
X25.454 Y0.095 Z-5.274 
X25.511 Y0.177 Z-5.288 
X25.528 Y0.275 Z-5.301 
X25.503 Y0.371 Z-5.315 
X25.438 Y0.448 Z-5.329 
X25.348 Y0.49 Z-5.343 
X25.248 Y0.489 Z-5.357 
X25.158 Y0.447 Z-5.371 
X25.094 Y0.371 Z-5.385 
X25.069 Y0.275 Z-5.399 
X25.086 Y0.177 Z-5.413 
X25.144 Y0.095 Z-5.426 
X25.23 Y0.045 Z-5.44 
X25.329 Y0.037 Z-5.454 
X25.423 Y0.071 Z-5.468 
X25.493 Y0.142 Z-5.482 
X25.527 Y0.235 Z-5.496 
X25.518 Y0.335 Z-5.51 
X25.468 Y0.421 Z-5.524 
X25.386 Y0.478 Z-5.538 
X25.288 Y0.495 Z-5.551 
X25.192 Y0.469 Z-5.565 
X25.116 Y0.404 Z-5.579 
X25.074 Y0.314 Z-5.593 
Y0.214 Z-5.607 
X25.117 Y0.124 Z-5.621 
X25.193 Y0.061 Z-5.635 
X25.289 Y0.035 Z-5.649 
X25.387 Y0.053 Z-5.663 
X25.469 Y0.11 Z-5.677 
X25.518 Y0.197 Z-5.69 
X25.527 Y0.296 Z-5.704 
X25.492 Y0.389 Z-5.718 
X25.421 Y0.459 Z-5.732 
X25.328 Y0.493 Z-5.746 
X25.228 Y0.484 Z-5.76 
X25.142 Y0.434 Z-5.774 
X25.086 Y0.352 Z-5.788 
X25.069 Y0.254 Z-5.802 
X25.095 Y0.158 Z-5.815 
X25.16 Y0.082 Z-5.829 
X25.25 Y0.04 Z-5.843 
X25.35 Y0.041 Z-5.857 
X25.44 Y0.083 Z-5.871 
X25.503 Y0.16 Z-5.885 
X25.528 Y0.256 Z-5.899 
X25.511 Y0.354 Z-5.913 
X25.453 Y0.435 Z-5.927 
X25.366 Y0.485 Z-5.94 
X25.267 Y0.493 Z-5.954 
X25.174 Y0.458 Z-5.968 
X25.104 Y0.387 Z-5.982 
X25.07 Y0.294 Z-5.996 
X25.08 Y0.194 Z-6.01 
X25.13 Y0.108 Z-6.024 
X25.212 Y0.052 Z-6.038 
X25.31 Y0.035 Z-6.052 
X25.406 Y0.062 Z-6.065 
X25.482 Y0.126 Z-6.079 
X25.524 Y0.217 Z-6.093 
X25.523 Y0.316 Z-6.107 
X25.48 Y0.406 Z-6.121 
X25.403 Y0.47 Z-6.135 
X25.307 Y0.495 Z-6.149 
X25.209 Y0.477 Z-6.163 
X25.128 Y0.419 Z-6.177 
X25.079 Y0.332 Z-6.191 
X25.071 Y0.233 Z-6.204 
X25.106 Y0.14 Z-6.218 
X25.177 Y0.07 Z-6.232 
X25.27 Y0.037 Z-6.246 
X25.37 Y0.046 Z-6.26 
X25.455 Y0.097 Z-6.274 
X25.512 Y0.179 Z-6.288 
X25.528 Y0.277 Z-6.302 
X25.502 Y0.373 Z-6.316 
X25.437 Y0.449 Z-6.329 
X25.346 Y0.49 Z-6.343 
X25.247 Y0.489 Z-6.357 
X25.157 Y0.446 Z-6.371 
X25.094 Y0.369 Z-6.385 
X25.069 Y0.273 Z-6.399 
X25.087 Y0.175 Z-6.413 
X25.145 Y0.094 Z-6.427 
X25.232 Y0.045 Z-6.441 
X25.331 Y0.037 Z-6.454 
X25.424 Y0.072 Z-6.468 
X25.494 Y0.143 Z-6.482 
X25.527 Y0.237 Z-6.496 
X25.517 Y0.336 Z-6.51 
X25.467 Y0.422 Z-6.524 
X25.384 Y0.478 Z-6.538 
X25.286 Y0.495 Z-6.552 
X25.19 Y0.468 Z-6.566 
X25.115 Y0.403 Z-6.58 
X25.074 Y0.312 Z-6.593 
X25.075 Y0.213 Z-6.607 
X25.118 Y0.123 Z-6.621 
X25.195 Y0.06 Z-6.635 
X25.291 Y0.035 Z-6.649 
X25.389 Y0.053 Z-6.663 
X25.47 Y0.111 Z-6.677 
X25.519 Y0.198 Z-6.691 
X25.526 Y0.298 Z-6.705 
X25.491 Y0.391 Z-6.718 
X25.42 Y0.46 Z-6.732 
X25.326 Y0.493 Z-6.746 
X25.227 Y0.483 Z-6.76 
X25.141 Y0.433 Z-6.774 
X25.085 Y0.35 Z-6.788 
X25.069 Y0.252 Z-6.802 
X25.096 Y0.156 Z-6.816 
X25.161 Y0.081 Z-6.83 
X25.252 Y0.04 Z-6.843 
X25.351 Y0.041 Z-6.857 
X25.441 Y0.084 Z-6.871 
X25.504 Y0.161 Z-6.885 
X25.529 Y0.258 Z-6.899 
X25.51 Y0.356 Z-6.913 
X25.452 Y0.437 Z-6.927 
X25.365 Y0.485 Z-6.941 
X25.266 Y0.493 Z-6.955 
X25.172 Y0.457 Z-6.968 
X25.103 Y0.386 Z-6.982 
X25.07 Y0.292 Z-6.996 
X25.08 Y0.193 Z-7.01 
X25.131 Y0.107 Z-7.024 
X25.214 Y0.051 Z-7.038 
X25.312 Y0.035 Z-7.052 
X25.408 Y0.062 Z-7.066 
X25.483 Y0.128 Z-7.08 
X25.524 Y0.218 Z-7.094 
X25.522 Y0.318 Z-7.107 
X25.479 Y0.408 Z-7.121 
X25.402 Y0.47 Z-7.135 
X25.305 Y0.495 Z-7.149 
X25.207 Y0.476 Z-7.163 
X25.127 Y0.418 Z-7.177 
X25.078 Y0.331 Z-7.191 
X25.071 Y0.231 Z-7.205 
X25.107 Y0.138 Z-7.219 
X25.178 Y0.069 Z-7.232 
X25.272 Y0.036 Z-7.246 
X25.371 Y0.047 Z-7.26 
X25.457 Y0.098 Z-7.274 
X25.512 Y0.18 Z-7.288 
X25.528 Y0.279 Z-7.302 
X25.501 Y0.374 Z-7.316 
X25.436 Y0.45 Z-7.33 
X25.345 Y0.49 Z-7.344 
X25.245 Y0.489 Z-7.357 
X25.156 Y0.445 Z-7.371 
X25.093 Y0.368 Z-7.385 
X25.069 Y0.271 Z-7.399 
X25.088 Y0.173 Z-7.413 
X25.146 Y0.093 Z-7.427 
X25.233 Y0.044 Z-7.441 
X25.333 Y0.037 Z-7.455 
X25.426 Y0.073 Z-7.469 
X25.495 Y0.145 Z-7.482 
X25.527 Y0.239 Z-7.496 
X25.517 Y0.338 Z-7.51 
X25.465 Y0.423 Z-7.524 
X25.383 Y0.479 Z-7.538 
X25.284 Y0.495 Z-7.55 
X25.189 Y0.467 
X25.114 Y0.402 
X25.073 Y0.311 
X25.075 Y0.211 
X25.119 Y0.122 
X25.196 Y0.059 
X25.293 Y0.035 
X25.391 Y0.054 
X25.471 Y0.113 
X25.519 Y0.2 
X25.526 Y0.299 
X25.49 Y0.392 
X25.418 Y0.461 
X25.324 Y0.494 
X25.236 Y0.435 
X25.257 Y0.331 
X25.299 Y0.265 
G0 Z31.001 
G0 X21.479 Y13.369 
G0 Z0.7 
G1 X21.709 F140 
X21.687 Y13.467 Z0.686 
X21.627 Y13.546 Z0.672 
X21.538 Y13.592 Z0.658 
X21.439 Y13.596 Z0.644 
X21.347 Y13.558 Z0.631 
X21.28 Y13.484 Z0.617 
X21.25 Y13.389 Z0.603 
X21.263 Y13.291 Z0.589 
X21.316 Y13.207 Z0.575 
X21.401 Y13.153 Z0.561 
X21.499 Y13.14 Z0.547 
X21.594 Y13.17 Z0.533 
X21.668 Y13.238 Z0.519 
X21.706 Y13.33 Z0.506 
X21.701 Y13.429 Z0.492 
X21.655 Y13.518 Z0.478 
X21.576 Y13.578 Z0.464 
X21.479 Y13.599 Z0.45 
X21.381 Y13.578 Z0.436 
X21.302 Y13.517 Z0.422 
X21.257 Y13.429 Z0.408 
X21.253 Y13.329 Z0.394 
X21.291 Y13.237 Z0.38 
X21.364 Y13.17 Z0.367 
X21.46 Y13.14 Z0.353 
X21.558 Y13.154 Z0.339 
X21.642 Y13.207 Z0.325 
X21.695 Y13.291 Z0.311 
X21.708 Y13.39 Z0.297 
X21.678 Y13.485 Z0.283 
X21.61 Y13.558 Z0.269 
X21.518 Y13.596 Z0.255 
X21.419 Y13.591 Z0.242 
X21.331 Y13.545 Z0.228 
X21.27 Y13.466 Z0.214 
X21.249 Y13.369 Z0.2 
X21.271 Y13.271 Z0.186 
X21.332 Y13.193 Z0.172 
X21.42 Y13.147 Z0.158 
X21.52 Y13.143 Z0.144 
X21.612 Y13.182 Z0.13 
X21.679 Y13.255 Z0.117 
X21.708 Y13.35 Z0.103 
X21.695 Y13.449 Z0.089 
X21.641 Y13.533 Z0.075 
X21.557 Y13.586 Z0.061 
X21.458 Y13.599 Z0.047 
X21.363 Y13.568 Z0.033 
X21.29 Y13.5 Z0.019 
X21.252 Y13.408 Z0.005 
X21.257 Y13.309 Z-0.009 
X21.304 Y13.221 Z-0.022 
X21.383 Y13.161 Z-0.036 
X21.48 Y13.139 Z-0.05 
X21.577 Y13.162 Z-0.064 
X21.656 Y13.223 Z-0.078 
X21.701 Y13.311 Z-0.092 
X21.705 Y13.411 Z-0.106 
X21.667 Y13.503 Z-0.12 
X21.593 Y13.569 Z-0.134 
X21.498 Y13.599 Z-0.147 
X21.399 Y13.585 Z-0.161 
X21.315 Y13.531 Z-0.175 
X21.262 Y13.447 Z-0.189 
X21.25 Y13.348 Z-0.203 
X21.281 Y13.253 Z-0.217 
X21.348 Y13.18 Z-0.231 
X21.441 Y13.143 Z-0.245 
X21.54 Y13.148 Z-0.259 
X21.628 Y13.194 Z-0.272 
X21.688 Y13.274 Z-0.286 
X21.709 Y13.371 Z-0.3 
X21.687 Y13.468 Z-0.314 
X21.625 Y13.547 Z-0.328 
X21.537 Y13.592 Z-0.342 
X21.437 Y13.596 Z-0.356 
X21.346 Y13.557 Z-0.37 
X21.279 Y13.483 Z-0.384 
X21.25 Y13.388 Z-0.397 
X21.264 Y13.289 Z-0.411 
X21.318 Y13.205 Z-0.425 
X21.402 Y13.153 Z-0.439 
X21.501 Y13.141 Z-0.453 
X21.596 Y13.171 Z-0.467 
X21.669 Y13.239 Z-0.481 
X21.706 Y13.332 Z-0.495 
X21.701 Y13.431 Z-0.509 
X21.654 Y13.519 Z-0.523 
X21.574 Y13.579 Z-0.536 
X21.477 Y13.599 Z-0.55 
X21.38 Y13.577 Z-0.564 
X21.301 Y13.516 Z-0.578 
X21.256 Y13.427 Z-0.592 
X21.253 Y13.327 Z-0.606 
X21.292 Y13.236 Z-0.62 
X21.366 Y13.169 Z-0.634 
X21.461 Y13.14 Z-0.648 
X21.56 Y13.154 Z-0.661 
X21.643 Y13.209 Z-0.675 
X21.696 Y13.293 Z-0.689 
X21.708 Y13.392 Z-0.703 
X21.677 Y13.487 Z-0.717 
X21.609 Y13.559 Z-0.731 
X21.516 Y13.596 Z-0.745 
X21.417 Y13.591 Z-0.759 
X21.329 Y13.544 Z-0.773 
X21.269 Y13.464 Z-0.786 
X21.249 Y13.367 Z-0.8 
X21.272 Y13.27 Z-0.814 
X21.333 Y13.192 Z-0.828 
X21.422 Y13.147 Z-0.842 
X21.522 Y13.143 Z-0.856 
X21.613 Y13.183 Z-0.87 
X21.68 Y13.257 Z-0.884 
X21.708 Y13.352 Z-0.898 
X21.694 Y13.451 Z-0.911 
X21.64 Y13.534 Z-0.925 
X21.555 Y13.587 Z-0.939 
X21.456 Y13.598 Z-0.953 
X21.362 Y13.567 Z-0.967 
X21.289 Y13.499 Z-0.981 
X21.252 Y13.407 Z-0.995 
X21.258 Y13.307 Z-1.009 
X21.305 Y13.219 Z-1.023 
X21.384 Y13.16 Z-1.037 
X21.482 Y13.14 Z-1.05 
X21.579 Y13.162 Z-1.064 
X21.657 Y13.224 Z-1.078 
X21.702 Y13.313 Z-1.092 
X21.705 Y13.412 Z-1.106 
X21.666 Y13.504 Z-1.12 
X21.591 Y13.57 Z-1.134 
X21.496 Y13.599 Z-1.148 
X21.397 Y13.585 Z-1.162 
X21.314 Y13.53 Z-1.175 
X21.262 Y13.445 Z-1.189 
X21.25 Y13.346 Z-1.203 
X21.281 Y13.252 Z-1.217 
X21.35 Y13.179 Z-1.231 
X21.442 Y13.142 Z-1.245 
X21.542 Y13.148 Z-1.259 
X21.629 Y13.195 Z-1.273 
X21.689 Y13.275 Z-1.287 
X21.709 Y13.373 Z-1.3 
X21.686 Y13.47 Z-1.314 
X21.624 Y13.548 Z-1.328 
X21.535 Y13.593 Z-1.342 
X21.436 Y13.595 Z-1.356 
X21.344 Y13.556 Z-1.37 
X21.278 Y13.481 Z-1.384 
X21.25 Y13.386 Z-1.398 
X21.264 Y13.287 Z-1.412 
X21.319 Y13.204 Z-1.426 
X21.404 Y13.152 Z-1.439 
X21.503 Y13.141 Z-1.453 
X21.597 Y13.172 Z-1.467 
X21.67 Y13.241 Z-1.481 
X21.706 Y13.333 Z-1.495 
X21.7 Y13.433 Z-1.509 
X21.653 Y13.52 Z-1.523 
X21.573 Y13.58 Z-1.537 
X21.475 Y13.599 Z-1.551 
X21.378 Y13.576 Z-1.564 
X21.3 Y13.514 Z-1.578 
X21.256 Y13.425 Z-1.592 
X21.253 Y13.326 Z-1.606 
X21.293 Y13.234 Z-1.62 
X21.367 Y13.168 Z-1.634 
X21.463 Y13.14 Z-1.648 
X21.561 Y13.155 Z-1.662 
X21.644 Y13.21 Z-1.676 
X21.696 Y13.295 Z-1.689 
X21.708 Y13.394 Z-1.703 
X21.676 Y13.488 Z-1.717 
X21.607 Y13.56 Z-1.731 
X21.515 Y13.597 Z-1.745 
X21.415 Y13.591 Z-1.759 
X21.328 Y13.543 Z-1.773 
X21.269 Y13.463 Z-1.787 
X21.249 Y13.365 Z-1.801 
X21.272 Y13.268 Z-1.814 
X21.334 Y13.191 Z-1.828 
X21.424 Y13.146 Z-1.842 
X21.523 Y13.144 Z-1.856 
X21.614 Y13.184 Z-1.87 
X21.68 Y13.258 Z-1.884 
X21.708 Y13.354 Z-1.898 
X21.694 Y13.452 Z-1.912 
X21.638 Y13.535 Z-1.926 
X21.553 Y13.587 Z-1.94 
X21.454 Y13.598 Z-1.953 
X21.36 Y13.566 Z-1.967 
X21.288 Y13.498 Z-1.981 
X21.252 Y13.405 Z-1.995 
X21.258 Y13.305 Z-2.009 
X21.306 Y13.218 Z-2.023 
X21.386 Y13.159 Z-2.037 
X21.484 Y13.14 Z-2.051 
X21.58 Y13.163 Z-2.065 
X21.658 Y13.225 Z-2.078 
X21.702 Y13.315 Z-2.092 
X21.705 Y13.414 Z-2.106 
X21.665 Y13.505 Z-2.12 
X21.59 Y13.571 Z-2.134 
X21.494 Y13.599 Z-2.148 
X21.396 Y13.584 Z-2.162 
X21.313 Y13.529 Z-2.176 
X21.261 Y13.443 Z-2.19 
X21.25 Y13.344 Z-2.203 
X21.282 Y13.25 Z-2.217 
X21.351 Y13.178 Z-2.231 
X21.444 Y13.142 Z-2.245 
X21.543 Y13.149 Z-2.259 
X21.631 Y13.197 Z-2.273 
X21.69 Y13.277 Z-2.287 
X21.709 Y13.375 Z-2.301 
X21.685 Y13.471 Z-2.315 
X21.623 Y13.549 Z-2.328 
X21.533 Y13.593 Z-2.342 
X21.434 Y13.595 Z-2.356 
X21.343 Y13.555 Z-2.37 
X21.277 Y13.48 Z-2.384 
X21.249 Y13.384 Z-2.398 
X21.265 Y13.286 Z-2.412 
X21.32 Y13.203 Z-2.426 
X21.405 Y13.152 Z-2.44 
X21.504 Y13.141 Z-2.454 
X21.599 Y13.173 Z-2.467 
X21.67 Y13.242 Z-2.481 
X21.706 Y13.335 Z-2.495 
X21.7 Y13.434 Z-2.509 
X21.652 Y13.522 Z-2.523 
X21.571 Y13.58 Z-2.537 
X21.473 Y13.599 Z-2.551 
X21.377 Y13.576 Z-2.565 
X21.299 Y13.513 Z-2.579 
X21.255 Y13.424 Z-2.592 
X21.254 Y13.324 Z-2.606 
X21.294 Y13.233 Z-2.62 
X21.369 Y13.168 Z-2.634 
X21.465 Y13.14 Z-2.648 
X21.563 Y13.155 Z-2.662 
X21.646 Y13.211 Z-2.676 
X21.697 Y13.296 Z-2.69 
X21.708 Y13.395 Z-2.704 
X21.675 Y13.49 Z-2.717 
X21.606 Y13.561 Z-2.731 
X21.513 Y13.597 Z-2.745 
X21.414 Y13.59 Z-2.759 
X21.327 Y13.542 Z-2.773 
X21.268 Y13.461 Z-2.787 
X21.249 Y13.363 Z-2.801 
X21.273 Y13.267 Z-2.815 
X21.336 Y13.189 Z-2.829 
X21.425 Y13.146 Z-2.843 
X21.525 Y13.144 Z-2.856 
X21.616 Y13.185 Z-2.87 
X21.681 Y13.26 Z-2.884 
X21.709 Y13.356 Z-2.898 
X21.693 Y13.454 Z-2.912 
X21.637 Y13.536 Z-2.926 
X21.552 Y13.588 Z-2.94 
X21.453 Y13.598 Z-2.954 
X21.359 Y13.565 Z-2.968 
X21.287 Y13.496 Z-2.981 
X21.251 Y13.403 Z-2.995 
X21.259 Y13.304 Z-3.009 
X21.307 Y13.217 Z-3.023 
X21.388 Y13.158 Z-3.037 
X21.485 Y13.14 Z-3.051 
X21.582 Y13.164 Z-3.065 
X21.659 Y13.227 Z-3.079 
X21.703 Y13.316 Z-3.093 
X21.704 Y13.416 Z-3.106 
X21.664 Y13.507 Z-3.12 
X21.588 Y13.572 Z-3.134 
X21.492 Y13.599 Z-3.148 
X21.394 Y13.583 Z-3.162 
X21.312 Y13.527 Z-3.176 
X21.261 Y13.442 Z-3.19 
X21.251 Y13.343 Z-3.204 
X21.283 Y13.249 Z-3.218 
X21.353 Y13.177 Z-3.231 
X21.446 Y13.142 Z-3.245 
X21.545 Y13.149 Z-3.259 
X21.632 Y13.198 Z-3.273 
X21.69 Y13.279 Z-3.287 
X21.709 Y13.376 Z-3.301 
X21.684 Y13.473 Z-3.315 
X21.621 Y13.55 Z-3.329 
X21.532 Y13.593 Z-3.343 
X21.432 Y13.595 Z-3.357 
X21.341 Y13.554 Z-3.37 
X21.276 Y13.478 Z-3.384 
X21.249 Y13.383 Z-3.398 
X21.265 Y13.284 Z-3.412 
X21.321 Y13.202 Z-3.426 
X21.407 Y13.151 Z-3.44 
X21.506 Y13.141 Z-3.454 
X21.6 Y13.174 Z-3.468 
X21.671 Y13.243 Z-3.482 
X21.707 Y13.337 Z-3.495 
X21.699 Y13.436 Z-3.509 
X21.65 Y13.523 Z-3.523 
X21.57 Y13.581 Z-3.537 
X21.472 Y13.599 Z-3.551 
X21.375 Y13.575 Z-3.565 
X21.298 Y13.512 Z-3.579 
X21.255 Y13.422 Z-3.593 
X21.254 Y13.322 Z-3.607 
X21.295 Y13.232 Z-3.62 
X21.37 Y13.167 Z-3.634 
X21.466 Y13.14 Z-3.648 
X21.565 Y13.156 Z-3.662 
X21.647 Y13.212 Z-3.676 
X21.698 Y13.298 Z-3.69 
X21.707 Y13.397 Z-3.704 
X21.674 Y13.491 Z-3.718 
X21.605 Y13.562 Z-3.732 
X21.511 Y13.597 Z-3.745 
X21.412 Y13.59 Z-3.759 
X21.325 Y13.541 Z-3.773 
X21.267 Y13.46 Z-3.787 
X21.249 Y13.362 Z-3.801 
X21.274 Y13.265 Z-3.815 
X21.337 Y13.188 Z-3.829 
X21.427 Y13.145 Z-3.843 
X21.527 Y13.144 Z-3.857 
X21.617 Y13.186 Z-3.871 
X21.682 Y13.261 Z-3.884 
X21.709 Y13.357 Z-3.898 
X21.692 Y13.456 Z-3.912 
X21.636 Y13.538 Z-3.926 
X21.55 Y13.588 Z-3.94 
X21.451 Y13.598 Z-3.954 
X21.357 Y13.565 Z-3.968 
X21.286 Y13.495 Z-3.982 
X21.251 Y13.401 Z-3.996 
X21.259 Y13.302 Z-4.009 
X21.308 Y13.216 Z-4.023 
X21.389 Y13.158 Z-4.037 
X21.487 Y13.14 Z-4.051 
X21.584 Y13.165 Z-4.065 
X21.66 Y13.228 Z-4.079 
X21.703 Y13.318 Z-4.093 
X21.704 Y13.418 Z-4.107 
X21.663 Y13.508 Z-4.121 
X21.587 Y13.573 Z-4.134 
X21.491 Y13.599 Z-4.148 
X21.393 Y13.583 Z-4.162 
X21.311 Y13.526 Z-4.176 
X21.26 Y13.44 Z-4.19 
X21.251 Y13.341 Z-4.204 
X21.284 Y13.247 Z-4.218 
X21.354 Y13.176 Z-4.232 
X21.447 Y13.142 Z-4.246 
X21.547 Y13.15 Z-4.26 
X21.633 Y13.199 Z-4.273 
X21.691 Y13.28 Z-4.287 
X21.709 Y13.378 Z-4.301 
X21.684 Y13.474 Z-4.315 
X21.62 Y13.551 Z-4.329 
X21.53 Y13.594 Z-4.343 
X21.431 Z-4.357 
X21.34 Y13.553 Z-4.371 
X21.276 Y13.477 Z-4.385 
X21.249 Y13.381 Z-4.398 
X21.266 Y13.283 Z-4.412 
X21.323 Y13.201 Z-4.426 
X21.409 Y13.151 Z-4.44 
X21.508 Y13.141 Z-4.454 
X21.602 Y13.175 Z-4.468 
X21.672 Y13.245 Z-4.482 
X21.707 Y13.338 Z-4.496 
X21.699 Y13.438 Z-4.51 
X21.649 Y13.524 Z-4.523 
X21.568 Y13.582 Z-4.537 
X21.47 Y13.599 Z-4.551 
X21.374 Y13.574 Z-4.565 
X21.297 Y13.51 Z-4.579 
X21.255 Y13.42 Z-4.593 
X21.254 Y13.321 Z-4.607 
X21.296 Y13.23 Z-4.621 
X21.372 Y13.166 Z-4.635 
X21.468 Y13.14 Z-4.648 
X21.566 Y13.157 Z-4.662 
X21.648 Y13.213 Z-4.676 
X21.698 Y13.3 Z-4.69 
X21.707 Y13.399 Z-4.704 
X21.673 Y13.492 Z-4.718 
X21.603 Y13.563 Z-4.732 
X21.51 Y13.597 Z-4.746 
X21.41 Y13.589 Z-4.76 
X21.324 Y13.54 Z-4.774 
X21.267 Y13.458 Z-4.787 
X21.249 Y13.36 Z-4.801 
X21.275 Y13.264 Z-4.815 
X21.339 Y13.187 Z-4.829 
X21.429 Y13.145 Z-4.843 
X21.528 Z-4.857 
X21.619 Y13.187 Z-4.871 
X21.683 Y13.263 Z-4.885 
X21.709 Y13.359 Z-4.899 
X21.692 Y13.457 Z-4.912 
X21.635 Y13.539 Z-4.926 
X21.549 Y13.589 Z-4.94 
X21.449 Y13.598 Z-4.954 
X21.356 Y13.564 Z-4.968 
X21.285 Y13.493 Z-4.982 
X21.251 Y13.4 Z-4.996 
X21.26 Y13.301 Z-5.01 
X21.309 Y13.214 Z-5.024 
X21.391 Y13.157 Z-5.037 
X21.489 Y13.14 Z-5.051 
X21.585 Y13.165 Z-5.065 
X21.661 Y13.229 Z-5.079 
X21.704 Y13.32 Z-5.093 
Y13.419 Z-5.107 
X21.661 Y13.509 Z-5.121 
X21.585 Y13.573 Z-5.135 
X21.489 Y13.599 Z-5.149 
X21.391 Y13.582 Z-5.163 
X21.309 Y13.525 Z-5.176 
X21.26 Y13.439 Z-5.19 
X21.251 Y13.339 Z-5.204 
X21.285 Y13.246 Z-5.218 
X21.356 Y13.175 Z-5.232 
X21.449 Y13.141 Z-5.246 
X21.548 Y13.15 Z-5.26 
X21.635 Y13.2 Z-5.274 
X21.692 Y13.282 Z-5.288 
X21.709 Y13.38 Z-5.301 
X21.683 Y13.476 Z-5.315 
X21.619 Y13.552 Z-5.329 
X21.528 Y13.594 Z-5.343 
X21.429 Z-5.357 
X21.339 Y13.552 Z-5.371 
X21.275 Y13.475 Z-5.385 
X21.249 Y13.379 Z-5.399 
X21.267 Y13.281 Z-5.413 
X21.324 Y13.2 Z-5.426 
X21.41 Y13.15 Z-5.44 
X21.51 Y13.142 Z-5.454 
X21.603 Y13.176 Z-5.468 
X21.673 Y13.246 Z-5.482 
X21.707 Y13.34 Z-5.496 
X21.698 Y13.439 Z-5.51 
X21.648 Y13.525 Z-5.524 
X21.566 Y13.582 Z-5.538 
X21.468 Y13.599 Z-5.551 
X21.372 Y13.573 Z-5.565 
X21.296 Y13.509 Z-5.579 
X21.254 Y13.419 Z-5.593 
X21.255 Y13.319 Z-5.607 
X21.297 Y13.229 Z-5.621 
X21.374 Y13.165 Z-5.635 
X21.47 Y13.14 Z-5.649 
X21.568 Y13.157 Z-5.663 
X21.649 Y13.215 Z-5.677 
X21.699 Y13.301 Z-5.69 
X21.707 Y13.4 Z-5.704 
X21.672 Y13.494 Z-5.718 
X21.602 Y13.564 Z-5.732 
X21.508 Y13.598 Z-5.746 
X21.409 Y13.589 Z-5.76 
X21.323 Y13.538 Z-5.774 
X21.266 Y13.457 Z-5.788 
X21.249 Y13.358 Z-5.802 
X21.275 Y13.262 Z-5.815 
X21.34 Y13.186 Z-5.829 
X21.43 Y13.145 Z-5.843 
X21.53 Z-5.857 
X21.62 Y13.188 Z-5.871 
X21.684 Y13.264 Z-5.885 
X21.709 Y13.361 Z-5.899 
X21.691 Y13.459 Z-5.913 
X21.633 Y13.54 Z-5.927 
X21.547 Y13.589 Z-5.94 
X21.448 Y13.597 Z-5.954 
X21.354 Y13.563 Z-5.968 
X21.284 Y13.492 Z-5.982 
X21.251 Y13.398 Z-5.996 
X21.26 Y13.299 Z-6.01 
X21.31 Y13.213 Z-6.024 
X21.392 Y13.156 Z-6.038 
X21.491 Y13.14 Z-6.052 
X21.587 Y13.166 Z-6.065 
X21.662 Y13.231 Z-6.079 
X21.704 Y13.321 Z-6.093 
X21.703 Y13.421 Z-6.107 
X21.66 Y13.511 Z-6.121 
X21.584 Y13.574 Z-6.135 
X21.487 Y13.599 Z-6.149 
X21.389 Y13.581 Z-6.163 
X21.308 Y13.524 Z-6.177 
X21.259 Y13.437 Z-6.191 
X21.251 Y13.338 Z-6.204 
X21.286 Y13.244 Z-6.218 
X21.357 Y13.175 Z-6.232 
X21.451 Y13.141 Z-6.246 
X21.55 Y13.151 Z-6.26 
X21.636 Y13.201 Z-6.274 
X21.692 Y13.283 Z-6.288 
X21.709 Y13.381 Z-6.302 
X21.682 Y13.477 Z-6.316 
X21.617 Y13.553 Z-6.329 
X21.527 Y13.594 Z-6.343 
X21.427 Z-6.357 
X21.337 Y13.551 Z-6.371 
X21.274 Y13.474 Z-6.385 
X21.249 Y13.377 Z-6.399 
X21.267 Y13.279 Z-6.413 
X21.325 Y13.198 Z-6.427 
X21.412 Y13.149 Z-6.441 
X21.511 Y13.142 Z-6.454 
X21.604 Y13.177 Z-6.468 
X21.674 Y13.248 Z-6.482 
X21.707 Y13.342 Z-6.496 
X21.698 Y13.441 Z-6.51 
X21.647 Y13.527 Z-6.524 
X21.565 Y13.583 Z-6.538 
X21.467 Y13.599 Z-6.552 
X21.371 Y13.572 Z-6.566 
X21.295 Y13.508 Z-6.58 
X21.254 Y13.417 Z-6.593 
X21.255 Y13.317 Z-6.607 
X21.298 Y13.227 Z-6.621 
X21.375 Y13.164 Z-6.635 
X21.472 Y13.14 Z-6.649 
X21.569 Y13.158 Z-6.663 
X21.65 Y13.216 Z-6.677 
X21.699 Y13.303 Z-6.691 
X21.707 Y13.402 Z-6.705 
X21.672 Y13.495 Z-6.718 
X21.6 Y13.565 Z-6.732 
X21.506 Y13.598 Z-6.746 
X21.407 Y13.588 Z-6.76 
X21.322 Y13.537 Z-6.774 
X21.265 Y13.455 Z-6.788 
X21.249 Y13.357 Z-6.802 
X21.276 Y13.261 Z-6.816 
X21.341 Y13.185 Z-6.83 
X21.432 Y13.144 Z-6.843 
X21.532 Y13.146 Z-6.857 
X21.621 Y13.189 Z-6.871 
X21.684 Y13.266 Z-6.885 
X21.709 Y13.362 Z-6.899 
X21.69 Y13.46 Z-6.913 
X21.632 Y13.541 Z-6.927 
X21.545 Y13.59 Z-6.941 
X21.446 Y13.597 Z-6.955 
X21.353 Y13.562 Z-6.968 
X21.283 Y13.49 Z-6.982 
X21.251 Y13.396 Z-6.996 
X21.261 Y13.297 Z-7.01 
X21.312 Y13.212 Z-7.024 
X21.394 Y13.156 Z-7.038 
X21.492 Y13.14 Z-7.052 
X21.588 Y13.167 Z-7.066 
X21.663 Y13.232 Z-7.08 
X21.704 Y13.323 Z-7.094 
X21.703 Y13.423 Z-7.107 
X21.659 Y13.512 Z-7.121 
X21.582 Y13.575 Z-7.135 
X21.486 Y13.599 Z-7.149 
X21.388 Y13.581 Z-7.163 
X21.307 Y13.522 Z-7.177 
X21.259 Y13.435 Z-7.191 
X21.251 Y13.336 Z-7.205 
X21.287 Y13.243 Z-7.219 
X21.358 Y13.174 Z-7.232 
X21.453 Y13.141 Z-7.246 
X21.552 Y13.151 Z-7.26 
X21.637 Y13.202 Z-7.274 
X21.693 Y13.285 Z-7.288 
X21.709 Y13.383 Z-7.302 
X21.681 Y13.479 Z-7.316 
X21.616 Y13.554 Z-7.33 
X21.525 Y13.595 Z-7.344 
X21.426 Y13.593 Z-7.357 
X21.336 Y13.55 Z-7.371 
X21.273 Y13.472 Z-7.385 
X21.249 Y13.376 Z-7.399 
X21.268 Y13.278 Z-7.413 
X21.326 Y13.197 Z-7.427 
X21.414 Y13.149 Z-7.441 
X21.513 Y13.142 Z-7.455 
X21.606 Y13.178 Z-7.469 
X21.675 Y13.249 Z-7.482 
X21.708 Y13.343 Z-7.496 
X21.697 Y13.442 Z-7.51 
X21.646 Y13.528 Z-7.524 
X21.563 Y13.584 Z-7.538 
X21.465 Y13.599 Z-7.55 
X21.369 Y13.572 
X21.294 Y13.506 
X21.254 Y13.415 
X21.255 Y13.316 
X21.299 Y13.226 
X21.377 Y13.164 
X21.473 Y13.14 
X21.571 Y13.159 
X21.651 Y13.217 
X21.7 Y13.304 
X21.706 Y13.404 
X21.671 Y13.497 
X21.599 Y13.566 
X21.505 Y13.598 
X21.417 Y13.539 
X21.437 Y13.435 
X21.479 Y13.369 
G0 Z31.001 
G0 X-21.754 Y12.917 
G0 Z0.7 
G1 X-21.524 F140 
X-21.546 Y13.014 Z0.686 
X-21.606 Y13.093 Z0.672 
X-21.695 Y13.139 Z0.658 
X-21.794 Y13.143 Z0.644 
X-21.886 Y13.105 Z0.631 
X-21.954 Y13.032 Z0.617 
X-21.983 Y12.937 Z0.603 
X-21.97 Y12.838 Z0.589 
X-21.917 Y12.754 Z0.575 
X-21.833 Y12.701 Z0.561 
X-21.734 Y12.688 Z0.547 
X-21.639 Y12.718 Z0.533 
X-21.566 Y12.785 Z0.519 
X-21.528 Y12.877 Z0.506 
X-21.532 Y12.977 Z0.492 
X-21.578 Y13.065 Z0.478 
X-21.657 Y13.125 Z0.464 
X-21.755 Y13.147 Z0.45 
X-21.852 Y13.125 Z0.436 
X-21.931 Y13.064 Z0.422 
X-21.977 Y12.976 Z0.408 
X-21.981 Y12.876 Z0.394 
X-21.942 Y12.784 Z0.38 
X-21.869 Y12.717 Z0.367 
X-21.774 Y12.688 Z0.353 
X-21.675 Y12.701 Z0.339 
X-21.591 Y12.755 Z0.325 
X-21.538 Y12.839 Z0.311 
X-21.525 Y12.937 Z0.297 
X-21.555 Y13.032 Z0.283 
X-21.623 Y13.106 Z0.269 
X-21.715 Y13.143 Z0.255 
X-21.815 Y13.139 Z0.242 
X-21.903 Y13.092 Z0.228 
X-21.963 Y13.013 Z0.214 
X-21.984 Y12.916 Z0.2 
X-21.962 Y12.819 Z0.186 
X-21.901 Y12.74 Z0.172 
X-21.813 Y12.694 Z0.158 
X-21.713 Y12.69 Z0.144 
X-21.622 Y12.729 Z0.13 
X-21.555 Y12.803 Z0.117 
X-21.525 Y12.898 Z0.103 
X-21.538 Y12.996 Z0.089 
X-21.592 Y13.08 Z0.075 
X-21.677 Y13.133 Z0.061 
X-21.775 Y13.146 Z0.047 
X-21.87 Y13.115 Z0.033 
X-21.943 Y13.048 Z0.019 
X-21.981 Y12.956 Z0.005 
X-21.976 Y12.856 Z-0.009 
X-21.93 Y12.768 Z-0.022 
X-21.85 Y12.708 Z-0.036 
X-21.753 Y12.687 Z-0.05 
X-21.656 Y12.709 Z-0.064 
X-21.577 Y12.77 Z-0.078 
X-21.532 Y12.859 Z-0.092 
X-21.528 Y12.958 Z-0.106 
X-21.567 Y13.05 Z-0.12 
X-21.641 Y13.117 Z-0.134 
X-21.736 Y13.146 Z-0.147 
X-21.834 Y13.132 Z-0.161 
X-21.918 Y13.078 Z-0.175 
X-21.971 Y12.994 Z-0.189 
X-21.983 Y12.895 Z-0.203 
X-21.953 Y12.8 Z-0.217 
X-21.885 Y12.727 Z-0.231 
X-21.793 Y12.69 Z-0.245 
X-21.693 Y12.695 Z-0.259 
X-21.605 Y12.742 Z-0.272 
X-21.545 Y12.821 Z-0.286 
X-21.524 Y12.918 Z-0.3 
X-21.547 Y13.016 Z-0.314 
X-21.608 Y13.094 Z-0.328 
X-21.696 Y13.139 Z-0.342 
X-21.796 Y13.143 Z-0.356 
X-21.888 Y13.104 Z-0.37 
X-21.954 Y13.03 Z-0.384 
X-21.984 Y12.935 Z-0.397 
X-21.97 Y12.836 Z-0.411 
X-21.916 Y12.753 Z-0.425 
X-21.831 Y12.7 Z-0.439 
X-21.732 Y12.688 Z-0.453 
X-21.638 Y12.719 Z-0.467 
X-21.565 Y12.786 Z-0.481 
X-21.527 Y12.879 Z-0.495 
X-21.533 Y12.978 Z-0.509 
X-21.579 Y13.066 Z-0.523 
X-21.659 Y13.126 Z-0.536 
X-21.756 Y13.147 Z-0.55 
X-21.853 Y13.124 Z-0.564 
X-21.932 Y13.063 Z-0.578 
X-21.977 Y12.974 Z-0.592 
X-21.98 Y12.875 Z-0.606 
X-21.941 Y12.783 Z-0.62 
X-21.867 Y12.716 Z-0.634 
X-21.772 Y12.687 Z-0.648 
X-21.673 Y12.701 Z-0.661 
X-21.59 Y12.756 Z-0.675 
X-21.537 Y12.84 Z-0.689 
X-21.525 Y12.939 Z-0.703 
X-21.556 Y13.034 Z-0.717 
X-21.624 Y13.107 Z-0.731 
X-21.717 Y13.144 Z-0.745 
X-21.816 Y13.138 Z-0.759 
X-21.904 Y13.091 Z-0.773 
X-21.964 Y13.012 Z-0.786 
X-21.984 Y12.914 Z-0.8 
X-21.962 Y12.817 Z-0.814 
X-21.9 Y12.739 Z-0.828 
X-21.811 Y12.694 Z-0.842 
X-21.712 Y12.691 Z-0.856 
X-21.62 Y12.73 Z-0.87 
X-21.554 Y12.804 Z-0.884 
X-21.525 Y12.899 Z-0.898 
X-21.539 Y12.998 Z-0.911 
X-21.594 Y13.081 Z-0.925 
X-21.678 Y13.134 Z-0.939 
X-21.777 Y13.146 Z-0.953 
X-21.872 Y13.114 Z-0.967 
X-21.944 Y13.046 Z-0.981 
X-21.981 Y12.954 Z-0.995 
X-21.976 Y12.854 Z-1.009 
X-21.929 Y12.767 Z-1.023 
X-21.849 Y12.707 Z-1.037 
X-21.751 Y12.687 Z-1.05 
X-21.654 Y12.71 Z-1.064 
X-21.576 Y12.771 Z-1.078 
X-21.531 Y12.86 Z-1.092 
X-21.528 Y12.96 Z-1.106 
X-21.568 Y13.051 Z-1.12 
X-21.642 Y13.117 Z-1.134 
X-21.737 Y13.146 Z-1.148 
X-21.836 Y13.132 Z-1.162 
X-21.919 Y13.077 Z-1.175 
X-21.971 Y12.992 Z-1.189 
X-21.983 Y12.893 Z-1.203 
X-21.952 Y12.799 Z-1.217 
X-21.883 Y12.726 Z-1.231 
X-21.791 Y12.69 Z-1.245 
X-21.691 Y12.695 Z-1.259 
X-21.604 Y12.743 Z-1.273 
X-21.544 Y12.823 Z-1.287 
X-21.524 Y12.92 Z-1.3 
X-21.547 Y13.017 Z-1.314 
X-21.609 Y13.095 Z-1.328 
X-21.698 Y13.14 Z-1.342 
X-21.798 Y13.143 Z-1.356 
X-21.889 Y13.103 Z-1.37 
X-21.955 Y13.029 Z-1.384 
X-21.984 Y12.933 Z-1.398 
X-21.969 Y12.835 Z-1.412 
X-21.914 Y12.752 Z-1.426 
X-21.829 Y12.699 Z-1.439 
X-21.731 Y12.688 Z-1.453 
X-21.636 Y12.719 Z-1.467 
X-21.564 Y12.788 Z-1.481 
X-21.527 Y12.881 Z-1.495 
X-21.533 Y12.98 Z-1.509 
X-21.581 Y13.067 Z-1.523 
X-21.661 Y13.127 Z-1.537 
X-21.758 Y13.147 Z-1.551 
X-21.855 Y13.124 Z-1.564 
X-21.933 Y13.062 Z-1.578 
X-21.977 Y12.972 Z-1.592 
X-21.98 Y12.873 Z-1.606 
X-21.94 Y12.782 Z-1.62 
X-21.866 Y12.716 Z-1.634 
X-21.77 Y12.687 Z-1.648 
X-21.672 Y12.702 Z-1.662 
X-21.589 Y12.757 Z-1.676 
X-21.537 Y12.842 Z-1.689 
X-21.526 Y12.941 Z-1.703 
X-21.557 Y13.035 Z-1.717 
X-21.626 Y13.107 Z-1.731 
X-21.718 Y13.144 Z-1.745 
X-21.818 Y13.138 Z-1.759 
X-21.905 Y13.09 Z-1.773 
X-21.964 Y13.01 Z-1.787 
X-21.984 Y12.912 Z-1.801 
X-21.961 Y12.816 Z-1.814 
X-21.899 Y12.738 Z-1.828 
X-21.81 Y12.693 Z-1.842 
X-21.71 Y12.691 Z-1.856 
X-21.619 Y12.731 Z-1.87 
X-21.553 Y12.806 Z-1.884 
X-21.525 Y12.901 Z-1.898 
X-21.54 Y13. Z-1.912 
X-21.595 Y13.083 Z-1.926 
X-21.68 Y13.134 Z-1.94 
X-21.779 Y13.145 Z-1.953 
X-21.873 Y13.114 Z-1.967 
X-21.945 Y13.045 Z-1.981 
X-21.982 Y12.952 Z-1.995 
X-21.975 Y12.853 Z-2.009 
X-21.927 Y12.765 Z-2.023 
X-21.847 Y12.706 Z-2.037 
X-21.75 Y12.687 Z-2.051 
X-21.653 Y12.71 Z-2.065 
X-21.575 Y12.773 Z-2.078 
X-21.531 Y12.862 Z-2.092 
X-21.529 Y12.961 Z-2.106 
X-21.569 Y13.053 Z-2.12 
X-21.643 Y13.118 Z-2.134 
X-21.739 Y13.146 Z-2.148 
X-21.838 Y13.131 Z-2.162 
X-21.92 Y13.076 Z-2.176 
X-21.972 Y12.991 Z-2.19 
X-21.983 Y12.892 Z-2.203 
X-21.951 Y12.797 Z-2.217 
X-21.882 Y12.725 Z-2.231 
X-21.789 Y12.689 Z-2.245 
X-21.69 Y12.696 Z-2.259 
X-21.603 Y12.744 Z-2.273 
X-21.544 Y12.824 Z-2.287 
X-21.524 Y12.922 Z-2.301 
X-21.548 Y13.019 Z-2.315 
X-21.61 Y13.096 Z-2.328 
X-21.7 Y13.14 Z-2.342 
X-21.799 Y13.142 Z-2.356 
X-21.89 Y13.102 Z-2.37 
X-21.956 Y13.027 Z-2.384 
X-21.984 Y12.931 Z-2.398 
X-21.969 Y12.833 Z-2.412 
X-21.913 Y12.75 Z-2.426 
X-21.828 Y12.699 Z-2.44 
X-21.729 Y12.688 Z-2.454 
X-21.635 Y12.72 Z-2.467 
X-21.563 Y12.789 Z-2.481 
X-21.527 Y12.882 Z-2.495 
X-21.534 Y12.982 Z-2.509 
X-21.582 Y13.069 Z-2.523 
X-21.662 Y13.127 Z-2.537 
X-21.76 Y13.147 Z-2.551 
X-21.857 Y13.123 Z-2.565 
X-21.934 Y13.06 Z-2.579 
X-21.978 Y12.971 Z-2.592 
X-21.98 Y12.871 Z-2.606 
X-21.939 Y12.78 Z-2.62 
X-21.864 Y12.715 Z-2.634 
X-21.769 Y12.687 Z-2.648 
X-21.67 Y12.703 Z-2.662 
X-21.588 Y12.758 Z-2.676 
X-21.536 Y12.844 Z-2.69 
X-21.526 Y12.943 Z-2.704 
X-21.558 Y13.037 Z-2.717 
X-21.627 Y13.108 Z-2.731 
X-21.72 Y13.144 Z-2.745 
X-21.819 Y13.137 Z-2.759 
X-21.907 Y13.089 Z-2.773 
X-21.965 Y13.008 Z-2.787 
X-21.984 Y12.911 Z-2.801 
X-21.96 Y12.814 Z-2.815 
X-21.897 Y12.737 Z-2.829 
X-21.808 Y12.693 Z-2.843 
X-21.708 Y12.691 Z-2.856 
X-21.617 Y12.732 Z-2.87 
X-21.552 Y12.807 Z-2.884 
X-21.525 Y12.903 Z-2.898 
X-21.54 Y13.001 Z-2.912 
X-21.596 Y13.084 Z-2.926 
X-21.681 Y13.135 Z-2.94 
X-21.781 Y13.145 Z-2.954 
X-21.875 Y13.113 Z-2.968 
X-21.946 Y13.043 Z-2.981 
X-21.982 Y12.95 Z-2.995 
X-21.975 Y12.851 Z-3.009 
X-21.926 Y12.764 Z-3.023 
X-21.846 Y12.706 Z-3.037 
X-21.748 Y12.687 Z-3.051 
X-21.651 Y12.711 Z-3.065 
X-21.574 Y12.774 Z-3.079 
X-21.531 Y12.864 Z-3.093 
X-21.529 Y12.963 Z-3.106 
X-21.57 Y13.054 Z-3.12 
X-21.645 Y13.119 Z-3.134 
X-21.741 Y13.146 Z-3.148 
X-21.839 Y13.131 Z-3.162 
X-21.922 Y13.075 Z-3.176 
X-21.973 Y12.989 Z-3.19 
X-21.983 Y12.89 Z-3.204 
X-21.95 Y12.796 Z-3.218 
X-21.881 Y12.725 Z-3.231 
X-21.788 Y12.689 Z-3.245 
X-21.688 Y12.696 Z-3.259 
X-21.601 Y12.745 Z-3.273 
X-21.543 Y12.826 Z-3.287 
X-21.524 Y12.924 Z-3.301 
X-21.549 Y13.02 Z-3.315 
X-21.612 Y13.097 Z-3.329 
X-21.701 Y13.141 Z-3.343 
X-21.801 Y13.142 Z-3.357 
X-21.892 Y13.101 Z-3.37 
X-21.957 Y13.026 Z-3.384 
X-21.984 Y12.93 Z-3.398 
X-21.968 Y12.831 Z-3.412 
X-21.912 Y12.749 Z-3.426 
X-21.826 Y12.698 Z-3.44 
X-21.727 Y12.688 Z-3.454 
X-21.633 Y12.721 Z-3.468 
X-21.562 Y12.791 Z-3.482 
X-21.527 Y12.884 Z-3.495 
X-21.534 Y12.983 Z-3.509 
X-21.583 Y13.07 Z-3.523 
X-21.664 Y13.128 Z-3.537 
X-21.762 Y13.147 Z-3.551 
X-21.858 Y13.122 Z-3.565 
X-21.935 Y13.059 Z-3.579 
X-21.978 Y12.969 Z-3.593 
X-21.979 Y12.87 Z-3.607 
X-21.938 Y12.779 Z-3.62 
X-21.863 Y12.714 Z-3.634 
X-21.767 Y12.687 Z-3.648 
X-21.669 Y12.703 Z-3.662 
X-21.586 Y12.759 Z-3.676 
X-21.536 Y12.845 Z-3.69 
X-21.526 Y12.944 Z-3.704 
X-21.559 Y13.038 Z-3.718 
X-21.629 Y13.109 Z-3.732 
X-21.722 Y13.144 Z-3.745 
X-21.821 Y13.137 Z-3.759 
X-21.908 Y13.088 Z-3.773 
X-21.966 Y13.007 Z-3.787 
X-21.984 Y12.909 Z-3.801 
X-21.959 Y12.813 Z-3.815 
X-21.896 Y12.736 Z-3.829 
X-21.806 Y12.693 Z-3.843 
X-21.707 Y12.692 Z-3.857 
X-21.616 Y12.733 Z-3.871 
X-21.551 Y12.809 Z-3.884 
X-21.525 Y12.905 Z-3.898 
X-21.541 Y13.003 Z-3.912 
X-21.597 Y13.085 Z-3.926 
X-21.683 Y13.135 Z-3.94 
X-21.782 Y13.145 Z-3.954 
X-21.876 Y13.112 Z-3.968 
X-21.947 Y13.042 Z-3.982 
X-21.982 Y12.949 Z-3.996 
X-21.974 Y12.849 Z-4.009 
X-21.925 Y12.763 Z-4.023 
X-21.844 Y12.705 Z-4.037 
X-21.746 Y12.687 Z-4.051 
X-21.65 Y12.712 Z-4.065 
X-21.573 Y12.775 Z-4.079 
X-21.53 Y12.865 Z-4.093 
X-21.529 Y12.965 Z-4.107 
X-21.571 Y13.055 Z-4.121 
X-21.647 Y13.12 Z-4.134 
X-21.743 Y13.146 Z-4.148 
X-21.841 Y13.13 Z-4.162 
X-21.923 Y13.073 Z-4.176 
X-21.973 Y12.987 Z-4.19 
X-21.983 Y12.888 Z-4.204 
X-21.949 Y12.795 Z-4.218 
X-21.879 Y12.724 Z-4.232 
X-21.786 Y12.689 Z-4.246 
X-21.687 Y12.697 Z-4.26 
X-21.6 Y12.746 Z-4.273 
X-21.542 Y12.827 Z-4.287 
X-21.524 Y12.925 Z-4.301 
X-21.55 Y13.022 Z-4.315 
X-21.613 Y13.098 Z-4.329 
X-21.703 Y13.141 Z-4.343 
X-21.803 Y13.142 Z-4.357 
X-21.893 Y13.1 Z-4.371 
X-21.958 Y13.024 Z-4.385 
X-21.984 Y12.928 Z-4.398 
X-21.967 Y12.83 Z-4.412 
X-21.911 Y12.748 Z-4.426 
X-21.825 Y12.698 Z-4.44 
X-21.725 Y12.689 Z-4.454 
X-21.632 Y12.722 Z-4.468 
X-21.561 Y12.792 Z-4.482 
X-21.526 Y12.886 Z-4.496 
X-21.535 Y12.985 Z-4.51 
X-21.584 Y13.071 Z-4.523 
X-21.665 Y13.129 Z-4.537 
X-21.763 Y13.147 Z-4.551 
X-21.86 Y13.121 Z-4.565 
X-21.936 Y13.058 Z-4.579 
X-21.979 Y12.967 Z-4.593 
Y12.868 Z-4.607 
X-21.937 Y12.777 Z-4.621 
X-21.861 Y12.713 Z-4.635 
X-21.765 Y12.687 Z-4.648 
X-21.667 Y12.704 Z-4.662 
X-21.585 Y12.761 Z-4.676 
X-21.535 Y12.847 Z-4.69 
X-21.526 Y12.946 Z-4.704 
X-21.56 Y13.04 Z-4.718 
X-21.63 Y13.11 Z-4.732 
X-21.724 Y13.145 Z-4.746 
X-21.823 Y13.136 Z-4.76 
X-21.909 Y13.087 Z-4.774 
X-21.967 Y13.005 Z-4.787 
X-21.984 Y12.907 Z-4.801 
X-21.959 Y12.811 Z-4.815 
X-21.895 Y12.735 Z-4.829 
X-21.805 Y12.692 Z-4.843 
X-21.705 Z-4.857 
X-21.615 Y12.734 Z-4.871 
X-21.55 Y12.81 Z-4.885 
X-21.525 Y12.906 Z-4.899 
X-21.542 Y13.004 Z-4.912 
X-21.599 Y13.086 Z-4.926 
X-21.685 Y13.136 Z-4.94 
X-21.784 Y13.145 Z-4.954 
X-21.878 Y13.111 Z-4.968 
X-21.948 Y13.041 Z-4.982 
X-21.982 Y12.947 Z-4.996 
X-21.974 Y12.848 Z-5.01 
X-21.924 Y12.762 Z-5.024 
X-21.842 Y12.704 Z-5.037 
X-21.744 Y12.687 Z-5.051 
X-21.648 Y12.713 Z-5.065 
X-21.572 Y12.777 Z-5.079 
X-21.53 Y12.867 Z-5.093 
Y12.966 Z-5.107 
X-21.572 Y13.057 Z-5.121 
X-21.648 Y13.121 Z-5.135 
X-21.744 Y13.147 Z-5.149 
X-21.842 Y13.129 Z-5.163 
X-21.924 Y13.072 Z-5.176 
X-21.974 Y12.986 Z-5.19 
X-21.982 Y12.887 Z-5.204 
X-21.948 Y12.793 Z-5.218 
X-21.878 Y12.723 Z-5.232 
X-21.784 Y12.689 Z-5.246 
X-21.685 Y12.697 Z-5.26 
X-21.599 Y12.747 Z-5.274 
X-21.542 Y12.829 Z-5.288 
X-21.524 Y12.927 Z-5.301 
X-21.55 Y13.023 Z-5.315 
X-21.614 Y13.099 Z-5.329 
X-21.705 Y13.141 Z-5.343 
X-21.804 Z-5.357 
X-21.895 Y13.099 Z-5.371 
X-21.958 Y13.023 Z-5.385 
X-21.984 Y12.926 Z-5.399 
X-21.967 Y12.828 Z-5.413 
X-21.909 Y12.747 Z-5.426 
X-21.823 Y12.697 Z-5.44 
X-21.724 Y12.689 Z-5.454 
X-21.63 Y12.723 Z-5.468 
X-21.56 Y12.794 Z-5.482 
X-21.526 Y12.887 Z-5.496 
X-21.535 Y12.986 Z-5.51 
X-21.585 Y13.073 Z-5.524 
X-21.667 Y13.129 Z-5.538 
X-21.765 Y13.146 Z-5.551 
X-21.861 Y13.12 Z-5.565 
X-21.937 Y13.056 Z-5.579 
X-21.979 Y12.966 Z-5.593 
Y12.866 Z-5.607 
X-21.936 Y12.776 Z-5.621 
X-21.86 Y12.712 Z-5.635 
X-21.763 Y12.687 Z-5.649 
X-21.665 Y12.705 Z-5.663 
X-21.584 Y12.762 Z-5.677 
X-21.535 Y12.848 Z-5.69 
X-21.526 Y12.948 Z-5.704 
X-21.561 Y13.041 Z-5.718 
X-21.632 Y13.111 Z-5.732 
X-21.725 Y13.145 Z-5.746 
X-21.824 Y13.136 Z-5.76 
X-21.91 Y13.086 Z-5.774 
X-21.967 Y13.004 Z-5.788 
X-21.984 Y12.906 Z-5.802 
X-21.958 Y12.81 Z-5.815 
X-21.893 Y12.734 Z-5.829 
X-21.803 Y12.692 Z-5.843 
X-21.703 Z-5.857 
X-21.613 Y12.735 Z-5.871 
X-21.55 Y12.812 Z-5.885 
X-21.524 Y12.908 Z-5.899 
X-21.542 Y13.006 Z-5.913 
X-21.6 Y13.087 Z-5.927 
X-21.686 Y13.136 Z-5.94 
X-21.786 Y13.145 Z-5.954 
X-21.879 Y13.11 Z-5.968 
X-21.949 Y13.039 Z-5.982 
X-21.982 Y12.945 Z-5.996 
X-21.973 Y12.846 Z-6.01 
X-21.923 Y12.76 Z-6.024 
X-21.841 Y12.704 Z-6.038 
X-21.743 Y12.687 Z-6.052 
X-21.647 Y12.713 Z-6.065 
X-21.571 Y12.778 Z-6.079 
X-21.529 Y12.869 Z-6.093 
X-21.53 Y12.968 Z-6.107 
X-21.573 Y13.058 Z-6.121 
X-21.65 Y13.122 Z-6.135 
X-21.746 Y13.147 Z-6.149 
X-21.844 Y13.129 Z-6.163 
X-21.925 Y13.071 Z-6.177 
X-21.974 Y12.984 Z-6.191 
X-21.982 Y12.885 Z-6.204 
X-21.947 Y12.792 Z-6.218 
X-21.876 Y12.722 Z-6.232 
X-21.782 Y12.688 Z-6.246 
X-21.683 Y12.698 Z-6.26 
X-21.597 Y12.748 Z-6.274 
X-21.541 Y12.831 Z-6.288 
X-21.525 Y12.929 Z-6.302 
X-21.551 Y13.025 Z-6.316 
X-21.616 Y13.1 Z-6.329 
X-21.706 Y13.142 Z-6.343 
X-21.806 Y13.141 Z-6.357 
X-21.896 Y13.098 Z-6.371 
X-21.959 Y13.021 Z-6.385 
X-21.984 Y12.925 Z-6.399 
X-21.966 Y12.827 Z-6.413 
X-21.908 Y12.746 Z-6.427 
X-21.821 Y12.697 Z-6.441 
X-21.722 Y12.689 Z-6.454 
X-21.629 Y12.724 Z-6.468 
X-21.559 Y12.795 Z-6.482 
X-21.526 Y12.889 Z-6.496 
X-21.536 Y12.988 Z-6.51 
X-21.586 Y13.074 Z-6.524 
X-21.668 Y13.13 Z-6.538 
X-21.767 Y13.146 Z-6.552 
X-21.863 Y13.12 Z-6.566 
X-21.938 Y13.055 Z-6.58 
X-21.979 Y12.964 Z-6.593 
X-21.978 Y12.865 Z-6.607 
X-21.935 Y12.775 Z-6.621 
X-21.858 Y12.712 Z-6.635 
X-21.762 Y12.687 Z-6.649 
X-21.664 Y12.705 Z-6.663 
X-21.583 Y12.763 Z-6.677 
X-21.534 Y12.85 Z-6.691 
X-21.527 Y12.949 Z-6.705 
X-21.562 Y13.043 Z-6.718 
X-21.633 Y13.112 Z-6.732 
X-21.727 Y13.145 Z-6.746 
X-21.826 Y13.135 Z-6.76 
X-21.912 Y13.084 Z-6.774 
X-21.968 Y13.002 Z-6.788 
X-21.984 Y12.904 Z-6.802 
X-21.957 Y12.808 Z-6.816 
X-21.892 Y12.733 Z-6.83 
X-21.801 Y12.692 Z-6.843 
X-21.702 Y12.693 Z-6.857 
X-21.612 Y12.736 Z-6.871 
X-21.549 Y12.813 Z-6.885 
X-21.524 Y12.91 Z-6.899 
X-21.543 Y13.008 Z-6.913 
X-21.601 Y13.088 Z-6.927 
X-21.688 Y13.137 Z-6.941 
X-21.787 Y13.144 Z-6.955 
X-21.88 Y13.109 Z-6.968 
X-21.95 Y13.038 Z-6.982 
X-21.983 Y12.944 Z-6.996 
X-21.973 Y12.845 Z-7.01 
X-21.922 Y12.759 Z-7.024 
X-21.839 Y12.703 Z-7.038 
X-21.741 Y12.687 Z-7.052 
X-21.645 Y12.714 Z-7.066 
X-21.57 Y12.779 Z-7.08 
X-21.529 Y12.87 Z-7.094 
X-21.53 Y12.97 Z-7.107 
X-21.574 Y13.059 Z-7.121 
X-21.651 Y13.122 Z-7.135 
X-21.748 Y13.147 Z-7.149 
X-21.845 Y13.128 Z-7.163 
X-21.926 Y13.07 Z-7.177 
X-21.975 Y12.983 Z-7.191 
X-21.982 Y12.883 Z-7.205 
X-21.946 Y12.79 Z-7.219 
X-21.875 Y12.721 Z-7.232 
X-21.781 Y12.688 Z-7.246 
X-21.682 Y12.698 Z-7.26 
X-21.596 Y12.75 Z-7.274 
X-21.54 Y12.832 Z-7.288 
X-21.525 Y12.93 Z-7.302 
X-21.552 Y13.026 Z-7.316 
X-21.617 Y13.101 Z-7.33 
X-21.708 Y13.142 Z-7.344 
X-21.808 Y13.14 Z-7.357 
X-21.897 Y13.097 Z-7.371 
X-21.96 Y13.02 Z-7.385 
X-21.984 Y12.923 Z-7.399 
X-21.965 Y12.825 Z-7.413 
X-21.907 Y12.745 Z-7.427 
X-21.82 Y12.696 Z-7.441 
X-21.72 Y12.689 Z-7.455 
X-21.627 Y12.725 Z-7.469 
X-21.558 Y12.797 Z-7.482 
X-21.526 Y12.891 Z-7.496 
X-21.536 Y12.99 Z-7.51 
X-21.587 Y13.075 Z-7.524 
X-21.67 Y13.131 Z-7.538 
X-21.768 Y13.146 Z-7.55 
X-21.864 Y13.119 
X-21.939 Y13.053 
X-21.98 Y12.962 
X-21.978 Y12.863 
X-21.934 Y12.773 
X-21.857 Y12.711 
X-21.76 Y12.687 
X-21.662 Y12.706 
X-21.582 Y12.765 
X-21.534 Y12.852 
X-21.527 Y12.951 
X-21.563 Y13.044 
X-21.634 Y13.113 
X-21.729 Y13.145 
X-21.817 Y13.086 
X-21.796 Y12.983 
X-21.754 Y12.917 
G0 Z31.001 
G0 X-25.299 Y-0.265 
G0 Z0.7 
G1 X-25.069 F140 
X-25.09 Y-0.168 Z0.686 
X-25.151 Y-0.089 Z0.672 
X-25.239 Y-0.043 Z0.658 
X-25.339 Y-0.038 Z0.644 
X-25.431 Y-0.077 Z0.631 
X-25.498 Y-0.15 Z0.617 
X-25.528 Y-0.245 Z0.603 
X-25.515 Y-0.344 Z0.589 
X-25.461 Y-0.428 Z0.575 
X-25.377 Y-0.481 Z0.561 
X-25.278 Y-0.494 Z0.547 
X-25.183 Y-0.464 Z0.533 
X-25.11 Y-0.397 Z0.519 
X-25.072 Y-0.305 Z0.506 
X-25.077 Y-0.205 Z0.492 
X-25.123 Y-0.117 Z0.478 
X-25.202 Y-0.056 Z0.464 
X-25.299 Y-0.035 Z0.45 
X-25.396 Y-0.057 Z0.436 
X-25.475 Y-0.117 Z0.422 
X-25.521 Y-0.206 Z0.408 
X-25.525 Y-0.305 Z0.394 
X-25.487 Y-0.397 Z0.38 
X-25.413 Y-0.464 Z0.367 
X-25.318 Y-0.494 Z0.353 
X-25.219 Y-0.481 Z0.339 
X-25.136 Y-0.427 Z0.325 
X-25.082 Y-0.343 Z0.311 
X-25.07 Y-0.244 Z0.297 
X-25.1 Y-0.149 Z0.283 
X-25.167 Y-0.076 Z0.269 
X-25.259 Y-0.038 Z0.255 
X-25.359 Y-0.043 Z0.242 
X-25.447 Y-0.089 Z0.228 
X-25.507 Y-0.168 Z0.214 
X-25.529 Y-0.266 Z0.2 
X-25.507 Y-0.363 Z0.186 
X-25.446 Y-0.442 Z0.172 
X-25.357 Y-0.487 Z0.158 
X-25.258 Y-0.491 Z0.144 
X-25.166 Y-0.453 Z0.13 
X-25.099 Y-0.379 Z0.117 
X-25.069 Y-0.284 Z0.103 
X-25.083 Y-0.185 Z0.089 
X-25.137 Y-0.102 Z0.075 
X-25.221 Y-0.048 Z0.061 
X-25.32 Y-0.036 Z0.047 
X-25.415 Y-0.066 Z0.033 
X-25.488 Y-0.134 Z0.019 
X-25.525 Y-0.226 Z0.005 
X-25.52 Y-0.326 Z-0.009 
X-25.474 Y-0.414 Z-0.022 
X-25.395 Y-0.474 Z-0.036 
X-25.297 Y-0.495 Z-0.05 
X-25.2 Y-0.473 Z-0.064 
X-25.122 Y-0.412 Z-0.078 
X-25.076 Y-0.323 Z-0.092 
X-25.072 Y-0.224 Z-0.106 
X-25.111 Y-0.132 Z-0.12 
X-25.185 Y-0.065 Z-0.134 
X-25.28 Y-0.036 Z-0.147 
X-25.379 Y-0.049 Z-0.161 
X-25.462 Y-0.103 Z-0.175 
X-25.515 Y-0.188 Z-0.189 
X-25.528 Y-0.287 Z-0.203 
X-25.497 Y-0.381 Z-0.217 
X-25.429 Y-0.454 Z-0.231 
X-25.337 Y-0.492 Z-0.245 
X-25.237 Y-0.487 Z-0.259 
X-25.149 Y-0.44 Z-0.272 
X-25.089 Y-0.361 Z-0.286 
X-25.069 Y-0.263 Z-0.3 
X-25.091 Y-0.166 Z-0.314 
X-25.152 Y-0.088 Z-0.328 
X-25.241 Y-0.042 Z-0.342 
X-25.34 Y-0.039 Z-0.356 
X-25.432 Y-0.078 Z-0.37 
X-25.499 Y-0.152 Z-0.384 
X-25.528 Y-0.247 Z-0.397 
X-25.514 Y-0.345 Z-0.411 
X-25.46 Y-0.429 Z-0.425 
X-25.375 Y-0.482 Z-0.439 
X-25.277 Y-0.494 Z-0.453 
X-25.182 Y-0.463 Z-0.467 
X-25.109 Y-0.395 Z-0.481 
X-25.072 Y-0.303 Z-0.495 
X-25.077 Y-0.203 Z-0.509 
X-25.124 Y-0.115 Z-0.523 
X-25.203 Y-0.056 Z-0.536 
X-25.301 Y-0.035 Z-0.55 
X-25.398 Y-0.057 Z-0.564 
X-25.476 Y-0.119 Z-0.578 
X-25.521 Y-0.208 Z-0.592 
X-25.525 Y-0.307 Z-0.606 
X-25.486 Y-0.399 Z-0.62 
X-25.412 Y-0.465 Z-0.634 
X-25.316 Y-0.494 Z-0.648 
X-25.218 Y-0.48 Z-0.661 
X-25.134 Y-0.426 Z-0.675 
X-25.082 Y-0.341 Z-0.689 
X-25.07 Y-0.242 Z-0.703 
X-25.101 Y-0.148 Z-0.717 
X-25.169 Y-0.075 Z-0.731 
X-25.261 Y-0.038 Z-0.745 
X-25.361 Y-0.043 Z-0.759 
X-25.448 Y-0.09 Z-0.773 
X-25.508 Y-0.17 Z-0.786 
X-25.529 Y-0.268 Z-0.8 
X-25.506 Y-0.364 Z-0.814 
X-25.444 Y-0.443 Z-0.828 
X-25.356 Y-0.488 Z-0.842 
X-25.256 Y-0.491 Z-0.856 
X-25.164 Y-0.452 Z-0.87 
X-25.098 Y-0.378 Z-0.884 
X-25.069 Y-0.282 Z-0.898 
X-25.083 Y-0.184 Z-0.911 
X-25.138 Y-0.1 Z-0.925 
X-25.223 Y-0.048 Z-0.939 
X-25.321 Y-0.036 Z-0.953 
X-25.416 Y-0.067 Z-0.967 
X-25.489 Y-0.135 Z-0.981 
X-25.526 Y-0.228 Z-0.995 
X-25.52 Y-0.327 Z-1.009 
X-25.473 Y-0.415 Z-1.023 
X-25.393 Y-0.475 Z-1.037 
X-25.296 Y-0.495 Z-1.05 
X-25.199 Y-0.472 Z-1.064 
X-25.12 Y-0.41 Z-1.078 
X-25.076 Y-0.321 Z-1.092 
X-25.073 Y-0.222 Z-1.106 
X-25.112 Y-0.13 Z-1.12 
X-25.186 Y-0.064 Z-1.134 
X-25.282 Y-0.036 Z-1.148 
X-25.38 Y-0.05 Z-1.162 
X-25.464 Y-0.105 Z-1.175 
X-25.516 Y-0.189 Z-1.189 
X-25.527 Y-0.288 Z-1.203 
X-25.496 Y-0.383 Z-1.217 
X-25.428 Y-0.455 Z-1.231 
X-25.335 Y-0.492 Z-1.245 
X-25.236 Y-0.486 Z-1.259 
X-25.148 Y-0.439 Z-1.273 
X-25.089 Y-0.359 Z-1.287 
X-25.069 Y-0.262 Z-1.3 
X-25.092 Y-0.165 Z-1.314 
X-25.153 Y-0.087 Z-1.328 
X-25.242 Y-0.042 Z-1.342 
X-25.342 Y-0.039 Z-1.356 
X-25.433 Y-0.079 Z-1.37 
X-25.5 Y-0.153 Z-1.384 
X-25.528 Y-0.248 Z-1.398 
X-25.513 Y-0.347 Z-1.412 
X-25.459 Y-0.43 Z-1.426 
X-25.374 Y-0.482 Z-1.439 
X-25.275 Y-0.494 Z-1.453 
X-25.18 Y-0.462 Z-1.467 
X-25.108 Y-0.394 Z-1.481 
X-25.071 Y-0.301 Z-1.495 
X-25.077 Y-0.202 Z-1.509 
X-25.125 Y-0.114 Z-1.523 
X-25.205 Y-0.055 Z-1.537 
X-25.302 Y-0.035 Z-1.551 
X-25.399 Y-0.058 Z-1.564 
X-25.477 Y-0.12 Z-1.578 
X-25.522 Y-0.209 Z-1.592 
X-25.524 Y-0.309 Z-1.606 
X-25.485 Y-0.4 Z-1.62 
X-25.41 Y-0.466 Z-1.634 
X-25.315 Y-0.494 Z-1.648 
X-25.216 Y-0.48 Z-1.662 
X-25.133 Y-0.425 Z-1.676 
X-25.081 Y-0.34 Z-1.689 
X-25.07 Y-0.241 Z-1.703 
X-25.102 Y-0.146 Z-1.717 
X-25.17 Y-0.074 Z-1.731 
X-25.263 Y-0.038 Z-1.745 
X-25.362 Y-0.044 Z-1.759 
X-25.45 Y-0.091 Z-1.773 
X-25.509 Y-0.172 Z-1.787 
X-25.529 Y-0.269 Z-1.801 
X-25.505 Y-0.366 Z-1.814 
X-25.443 Y-0.444 Z-1.828 
X-25.354 Y-0.488 Z-1.842 
X-25.254 Y-0.491 Z-1.856 
X-25.163 Y-0.451 Z-1.87 
X-25.097 Y-0.376 Z-1.884 
X-25.069 Y-0.281 Z-1.898 
X-25.084 Y-0.182 Z-1.912 
X-25.139 Y-0.099 Z-1.926 
X-25.224 Y-0.047 Z-1.94 
X-25.323 Y-0.036 Z-1.953 
X-25.418 Y-0.068 Z-1.967 
X-25.49 Y-0.137 Z-1.981 
X-25.526 Y-0.23 Z-1.995 
X-25.52 Y-0.329 Z-2.009 
X-25.472 Y-0.416 Z-2.023 
X-25.392 Y-0.475 Z-2.037 
X-25.294 Y-0.495 Z-2.051 
X-25.197 Y-0.471 Z-2.065 
X-25.119 Y-0.409 Z-2.078 
X-25.075 Y-0.32 Z-2.092 
X-25.073 Y-0.22 Z-2.106 
X-25.113 Y-0.129 Z-2.12 
X-25.188 Y-0.063 Z-2.134 
X-25.283 Y-0.035 Z-2.148 
X-25.382 Y-0.051 Z-2.162 
X-25.465 Y-0.106 Z-2.176 
X-25.516 Y-0.191 Z-2.19 
X-25.527 Y-0.29 Z-2.203 
X-25.495 Y-0.384 Z-2.217 
X-25.426 Y-0.456 Z-2.231 
X-25.334 Y-0.492 Z-2.245 
X-25.234 Y-0.486 Z-2.259 
X-25.147 Y-0.438 Z-2.273 
X-25.088 Y-0.357 Z-2.287 
X-25.069 Y-0.26 Z-2.301 
X-25.092 Y-0.163 Z-2.315 
X-25.155 Y-0.085 Z-2.328 
X-25.244 Y-0.041 Z-2.342 
X-25.344 Y-0.039 Z-2.356 
X-25.435 Y-0.08 Z-2.37 
X-25.5 Y-0.155 Z-2.384 
X-25.528 Y-0.25 Z-2.398 
X-25.513 Y-0.349 Z-2.412 
X-25.457 Y-0.431 Z-2.426 
X-25.372 Y-0.483 Z-2.44 
X-25.273 Y-0.494 Z-2.454 
X-25.179 Y-0.461 Z-2.467 
X-25.107 Y-0.392 Z-2.481 
X-25.071 Y-0.299 Z-2.495 
X-25.078 Y-0.2 Z-2.509 
X-25.126 Y-0.113 Z-2.523 
X-25.206 Y-0.054 Z-2.537 
X-25.304 Y-0.035 Z-2.551 
X-25.401 Y-0.059 Z-2.565 
X-25.478 Y-0.121 Z-2.579 
X-25.522 Y-0.211 Z-2.592 
X-25.524 Y-0.31 Z-2.606 
X-25.484 Y-0.401 Z-2.62 
X-25.409 Y-0.467 Z-2.634 
X-25.313 Y-0.494 Z-2.648 
X-25.215 Y-0.479 Z-2.662 
X-25.132 Y-0.423 Z-2.676 
X-25.081 Y-0.338 Z-2.69 
X-25.07 Y-0.239 Z-2.704 
X-25.102 Y-0.145 Z-2.717 
X-25.172 Y-0.073 Z-2.731 
X-25.264 Y-0.037 Z-2.745 
X-25.364 Y-0.044 Z-2.759 
X-25.451 Y-0.093 Z-2.773 
X-25.51 Y-0.173 Z-2.787 
X-25.529 Y-0.271 Z-2.801 
X-25.504 Y-0.368 Z-2.815 
X-25.442 Y-0.445 Z-2.829 
X-25.352 Y-0.489 Z-2.843 
X-25.253 Y-0.49 Z-2.856 
X-25.162 Y-0.45 Z-2.87 
X-25.096 Y-0.375 Z-2.884 
X-25.069 Y-0.279 Z-2.898 
X-25.085 Y-0.18 Z-2.912 
X-25.14 Y-0.098 Z-2.926 
X-25.226 Y-0.047 Z-2.94 
X-25.325 Y-0.036 Z-2.954 
X-25.419 Y-0.069 Z-2.968 
X-25.491 Y-0.138 Z-2.981 
X-25.526 Y-0.231 Z-2.995 
X-25.519 Y-0.331 Z-3.009 
X-25.471 Y-0.418 Z-3.023 
X-25.39 Y-0.476 Z-3.037 
X-25.292 Y-0.495 Z-3.051 
X-25.196 Y-0.471 Z-3.065 
X-25.118 Y-0.408 Z-3.079 
X-25.075 Y-0.318 Z-3.093 
X-25.073 Y-0.219 Z-3.106 
X-25.114 Y-0.128 Z-3.12 
X-25.189 Y-0.063 Z-3.134 
X-25.285 Y-0.035 Z-3.148 
X-25.383 Y-0.051 Z-3.162 
X-25.466 Y-0.107 Z-3.176 
X-25.517 Y-0.193 Z-3.19 
X-25.527 Y-0.292 Z-3.204 
X-25.494 Y-0.386 Z-3.218 
X-25.425 Y-0.457 Z-3.231 
X-25.332 Y-0.493 Z-3.245 
X-25.233 Y-0.485 Z-3.259 
X-25.146 Y-0.437 Z-3.273 
X-25.087 Y-0.356 Z-3.287 
X-25.069 Y-0.258 Z-3.301 
X-25.093 Y-0.162 Z-3.315 
X-25.156 Y-0.084 Z-3.329 
X-25.246 Y-0.041 Z-3.343 
X-25.345 Y-0.04 Z-3.357 
X-25.436 Y-0.081 Z-3.37 
X-25.501 Y-0.156 Z-3.384 
X-25.528 Y-0.252 Z-3.398 
X-25.512 Y-0.35 Z-3.412 
X-25.456 Y-0.432 Z-3.426 
X-25.371 Y-0.483 Z-3.44 
X-25.271 Y-0.493 Z-3.454 
X-25.177 Y-0.46 Z-3.468 
X-25.106 Y-0.391 Z-3.482 
X-25.071 Y-0.298 Z-3.495 
X-25.078 Y-0.198 Z-3.509 
X-25.127 Y-0.112 Z-3.523 
X-25.208 Y-0.054 Z-3.537 
X-25.306 Y-0.035 Z-3.551 
X-25.402 Y-0.06 Z-3.565 
X-25.479 Y-0.123 Z-3.579 
X-25.523 Y-0.213 Z-3.593 
X-25.524 Y-0.312 Z-3.607 
X-25.483 Y-0.403 Z-3.62 
X-25.407 Y-0.468 Z-3.634 
X-25.311 Y-0.495 Z-3.648 
X-25.213 Y-0.478 Z-3.662 
X-25.131 Y-0.422 Z-3.676 
X-25.08 Y-0.336 Z-3.69 
X-25.07 Y-0.237 Z-3.704 
X-25.103 Y-0.143 Z-3.718 
X-25.173 Y-0.072 Z-3.732 
X-25.266 Y-0.037 Z-3.745 
X-25.365 Y-0.045 Z-3.759 
X-25.452 Y-0.094 Z-3.773 
X-25.51 Y-0.175 Z-3.787 
X-25.528 Y-0.273 Z-3.801 
X-25.504 Y-0.369 Z-3.815 
X-25.44 Y-0.446 Z-3.829 
X-25.351 Y-0.489 Z-3.843 
X-25.251 Y-0.49 Z-3.857 
X-25.16 Y-0.449 Z-3.871 
X-25.096 Y-0.373 Z-3.884 
X-25.069 Y-0.277 Z-3.898 
X-25.085 Y-0.179 Z-3.912 
X-25.142 Y-0.097 Z-3.926 
X-25.227 Y-0.046 Z-3.94 
X-25.327 Y-0.037 Z-3.954 
X-25.42 Y-0.07 Z-3.968 
X-25.492 Y-0.14 Z-3.982 
X-25.526 Y-0.233 Z-3.996 
X-25.519 Y-0.332 Z-4.009 
X-25.469 Y-0.419 Z-4.023 
X-25.388 Y-0.477 Z-4.037 
X-25.29 Y-0.495 Z-4.051 
X-25.194 Y-0.47 Z-4.065 
X-25.117 Y-0.406 Z-4.079 
X-25.074 Y-0.316 Z-4.093 
Y-0.217 Z-4.107 
X-25.115 Y-0.126 Z-4.121 
X-25.191 Y-0.062 Z-4.134 
X-25.287 Y-0.035 Z-4.148 
X-25.385 Y-0.052 Z-4.162 
X-25.467 Y-0.108 Z-4.176 
X-25.517 Y-0.194 Z-4.19 
X-25.527 Y-0.293 Z-4.204 
X-25.493 Y-0.387 Z-4.218 
X-25.424 Y-0.458 Z-4.232 
X-25.33 Y-0.493 Z-4.246 
X-25.231 Y-0.485 Z-4.26 
X-25.144 Y-0.436 Z-4.273 
X-25.087 Y-0.354 Z-4.287 
X-25.069 Y-0.256 Z-4.301 
X-25.094 Y-0.16 Z-4.315 
X-25.157 Y-0.083 Z-4.329 
X-25.247 Y-0.041 Z-4.343 
X-25.347 Y-0.04 Z-4.357 
X-25.438 Y-0.082 Z-4.371 
X-25.502 Y-0.158 Z-4.385 
X-25.528 Y-0.254 Z-4.398 
X-25.512 Y-0.352 Z-4.412 
X-25.455 Y-0.434 Z-4.426 
X-25.369 Y-0.484 Z-4.44 
X-25.27 Y-0.493 Z-4.454 
X-25.176 Y-0.46 Z-4.468 
X-25.105 Y-0.389 Z-4.482 
X-25.071 Y-0.296 Z-4.496 
X-25.079 Y-0.197 Z-4.51 
X-25.128 Y-0.11 Z-4.523 
X-25.21 Y-0.053 Z-4.537 
X-25.308 Y-0.035 Z-4.551 
X-25.404 Y-0.06 Z-4.565 
X-25.48 Y-0.124 Z-4.579 
X-25.523 Y-0.214 Z-4.593 
Y-0.314 Z-4.607 
X-25.482 Y-0.404 Z-4.621 
X-25.406 Y-0.469 Z-4.635 
X-25.31 Y-0.495 Z-4.648 
X-25.211 Y-0.478 Z-4.662 
X-25.13 Y-0.421 Z-4.676 
X-25.08 Y-0.335 Z-4.69 
X-25.07 Y-0.236 Z-4.704 
X-25.104 Y-0.142 Z-4.718 
X-25.174 Y-0.071 Z-4.732 
X-25.268 Y-0.037 Z-4.746 
X-25.367 Y-0.045 Z-4.76 
X-25.454 Y-0.095 Z-4.774 
X-25.511 Y-0.176 Z-4.787 
X-25.528 Y-0.274 Z-4.801 
X-25.503 Y-0.371 Z-4.815 
X-25.439 Y-0.447 Z-4.829 
X-25.349 Y-0.489 Z-4.843 
X-25.249 Y-0.49 Z-4.857 
X-25.159 Y-0.448 Z-4.871 
X-25.095 Y-0.372 Z-4.885 
X-25.069 Y-0.275 Z-4.899 
X-25.086 Y-0.177 Z-4.912 
X-25.143 Y-0.096 Z-4.926 
X-25.229 Y-0.046 Z-4.94 
X-25.328 Y-0.037 Z-4.954 
X-25.422 Y-0.071 Z-4.968 
X-25.492 Y-0.141 Z-4.982 
X-25.527 Y-0.235 Z-4.996 
X-25.518 Y-0.334 Z-5.01 
X-25.468 Y-0.42 Z-5.024 
X-25.387 Y-0.477 Z-5.037 
X-25.289 Y-0.495 Z-5.051 
X-25.193 Y-0.469 Z-5.065 
X-25.116 Y-0.405 Z-5.079 
X-25.074 Y-0.315 Z-5.093 
Y-0.215 Z-5.107 
X-25.116 Y-0.125 Z-5.121 
X-25.192 Y-0.061 Z-5.135 
X-25.289 Y-0.035 Z-5.149 
X-25.387 Y-0.052 Z-5.163 
X-25.468 Y-0.11 Z-5.176 
X-25.518 Y-0.196 Z-5.19 
X-25.527 Y-0.295 Z-5.204 
X-25.493 Y-0.389 Z-5.218 
X-25.422 Y-0.459 Z-5.232 
X-25.328 Y-0.493 Z-5.246 
X-25.229 Y-0.484 Z-5.26 
X-25.143 Y-0.434 Z-5.274 
X-25.086 Y-0.353 Z-5.288 
X-25.069 Y-0.255 Z-5.301 
X-25.095 Y-0.158 Z-5.315 
X-25.159 Y-0.082 Z-5.329 
X-25.249 Y-0.04 Z-5.343 
X-25.349 Z-5.357 
X-25.439 Y-0.083 Z-5.371 
X-25.503 Y-0.159 Z-5.385 
X-25.528 Y-0.255 Z-5.399 
X-25.511 Y-0.353 Z-5.413 
X-25.454 Y-0.435 Z-5.426 
X-25.367 Y-0.484 Z-5.44 
X-25.268 Y-0.493 Z-5.454 
X-25.175 Y-0.459 Z-5.468 
X-25.104 Y-0.388 Z-5.482 
X-25.071 Y-0.294 Z-5.496 
X-25.079 Y-0.195 Z-5.51 
X-25.129 Y-0.109 Z-5.524 
X-25.211 Y-0.052 Z-5.538 
X-25.309 Y-0.035 Z-5.551 
X-25.405 Y-0.061 Z-5.565 
X-25.482 Y-0.125 Z-5.579 
X-25.523 Y-0.216 Z-5.593 
Y-0.315 Z-5.607 
X-25.481 Y-0.406 Z-5.621 
X-25.404 Y-0.469 Z-5.635 
X-25.308 Y-0.495 Z-5.649 
X-25.21 Y-0.477 Z-5.663 
X-25.128 Y-0.42 Z-5.677 
X-25.079 Y-0.333 Z-5.69 
X-25.071 Y-0.234 Z-5.704 
X-25.105 Y-0.141 Z-5.718 
X-25.176 Y-0.07 Z-5.732 
X-25.27 Y-0.037 Z-5.746 
X-25.369 Y-0.046 Z-5.76 
X-25.455 Y-0.096 Z-5.774 
X-25.512 Y-0.178 Z-5.788 
X-25.528 Y-0.276 Z-5.802 
X-25.502 Y-0.372 Z-5.815 
X-25.438 Y-0.448 Z-5.829 
X-25.347 Y-0.49 Z-5.843 
X-25.248 Y-0.489 Z-5.857 
X-25.158 Y-0.447 Z-5.871 
X-25.094 Y-0.37 Z-5.885 
X-25.069 Y-0.274 Z-5.899 
X-25.087 Y-0.176 Z-5.913 
X-25.144 Y-0.094 Z-5.927 
X-25.231 Y-0.045 Z-5.94 
X-25.33 Y-0.037 Z-5.954 
X-25.423 Y-0.072 Z-5.968 
X-25.493 Y-0.143 Z-5.982 
X-25.527 Y-0.236 Z-5.996 
X-25.518 Y-0.335 Z-6.01 
X-25.467 Y-0.421 Z-6.024 
X-25.385 Y-0.478 Z-6.038 
X-25.287 Y-0.495 Z-6.052 
X-25.191 Y-0.468 Z-6.065 
X-25.115 Y-0.404 Z-6.079 
X-25.074 Y-0.313 Z-6.093 
Y-0.214 Z-6.107 
X-25.117 Y-0.124 Z-6.121 
X-25.194 Y-0.06 Z-6.135 
X-25.29 Y-0.035 Z-6.149 
X-25.388 Y-0.053 Z-6.163 
X-25.469 Y-0.111 Z-6.177 
X-25.518 Y-0.197 Z-6.191 
X-25.526 Y-0.297 Z-6.204 
X-25.492 Y-0.39 Z-6.218 
X-25.421 Y-0.46 Z-6.232 
X-25.327 Y-0.493 Z-6.246 
X-25.228 Y-0.484 Z-6.26 
X-25.142 Y-0.433 Z-6.274 
X-25.085 Y-0.351 Z-6.288 
X-25.069 Y-0.253 Z-6.302 
X-25.096 Y-0.157 Z-6.316 
X-25.16 Y-0.081 Z-6.329 
X-25.251 Y-0.04 Z-6.343 
X-25.35 Y-0.041 Z-6.357 
X-25.44 Y-0.084 Z-6.371 
X-25.504 Y-0.161 Z-6.385 
X-25.528 Y-0.257 Z-6.399 
X-25.51 Y-0.355 Z-6.413 
X-25.452 Y-0.436 Z-6.427 
X-25.366 Y-0.485 Z-6.441 
X-25.266 Y-0.493 Z-6.454 
X-25.173 Y-0.458 Z-6.468 
X-25.103 Y-0.387 Z-6.482 
X-25.07 Y-0.293 Z-6.496 
X-25.08 Y-0.194 Z-6.51 
X-25.131 Y-0.108 Z-6.524 
X-25.213 Y-0.052 Z-6.538 
X-25.311 Y-0.035 Z-6.552 
X-25.407 Y-0.062 Z-6.566 
X-25.483 Y-0.127 Z-6.58 
X-25.524 Y-0.218 Z-6.593 
X-25.523 Y-0.317 Z-6.607 
X-25.48 Y-0.407 Z-6.621 
X-25.403 Y-0.47 Z-6.635 
X-25.306 Y-0.495 Z-6.649 
X-25.208 Y-0.476 Z-6.663 
X-25.127 Y-0.418 Z-6.677 
X-25.078 Y-0.332 Z-6.691 
X-25.071 Y-0.232 Z-6.705 
X-25.106 Y-0.139 Z-6.718 
X-25.177 Y-0.07 Z-6.732 
X-25.271 Y-0.037 Z-6.746 
X-25.37 Y-0.046 Z-6.76 
X-25.456 Y-0.097 Z-6.774 
X-25.512 Y-0.18 Z-6.788 
X-25.528 Y-0.278 Z-6.802 
X-25.501 Y-0.374 Z-6.816 
X-25.436 Y-0.449 Z-6.83 
X-25.346 Y-0.49 Z-6.843 
X-25.246 Y-0.489 Z-6.857 
X-25.156 Y-0.446 Z-6.871 
X-25.093 Y-0.369 Z-6.885 
X-25.069 Y-0.272 Z-6.899 
X-25.087 Y-0.174 Z-6.913 
X-25.145 Y-0.093 Z-6.927 
X-25.232 Y-0.045 Z-6.941 
X-25.332 Y-0.037 Z-6.955 
X-25.425 Y-0.073 Z-6.968 
X-25.494 Y-0.144 Z-6.982 
X-25.527 Y-0.238 Z-6.996 
X-25.517 Y-0.337 Z-7.01 
X-25.466 Y-0.423 Z-7.024 
X-25.384 Y-0.479 Z-7.038 
X-25.285 Y-0.495 Z-7.052 
X-25.19 Y-0.467 Z-7.066 
X-25.114 Y-0.402 Z-7.08 
X-25.073 Y-0.311 Z-7.094 
X-25.075 Y-0.212 Z-7.107 
X-25.118 Y-0.122 Z-7.121 
X-25.195 Y-0.059 Z-7.135 
X-25.292 Y-0.035 Z-7.149 
X-25.39 Y-0.054 Z-7.163 
X-25.471 Y-0.112 Z-7.177 
X-25.519 Y-0.199 Z-7.191 
X-25.526 Y-0.298 Z-7.205 
X-25.491 Y-0.391 Z-7.219 
X-25.419 Y-0.461 Z-7.232 
X-25.325 Y-0.493 Z-7.246 
X-25.226 Y-0.483 Z-7.26 
X-25.141 Y-0.432 Z-7.274 
X-25.085 Y-0.35 Z-7.288 
X-25.069 Y-0.251 Z-7.302 
X-25.096 Y-0.155 Z-7.316 
X-25.162 Y-0.08 Z-7.33 
X-25.252 Y-0.04 Z-7.344 
X-25.352 Y-0.041 Z-7.357 
X-25.442 Y-0.085 Z-7.371 
X-25.504 Y-0.162 Z-7.385 
X-25.529 Y-0.259 Z-7.399 
X-25.51 Y-0.357 Z-7.413 
X-25.451 Y-0.437 Z-7.427 
X-25.364 Y-0.485 Z-7.441 
X-25.265 Y-0.492 Z-7.455 
X-25.172 Y-0.457 Z-7.469 
X-25.103 Y-0.385 Z-7.482 
X-25.07 Y-0.291 Z-7.496 
X-25.081 Y-0.192 Z-7.51 
X-25.132 Y-0.107 Z-7.524 
X-25.214 Y-0.051 Z-7.538 
X-25.313 Y-0.035 Z-7.55 
X-25.408 Y-0.063 
X-25.484 Y-0.128 
X-25.524 Y-0.219 
X-25.522 Y-0.319 
X-25.478 Y-0.408 
X-25.401 Y-0.471 
X-25.304 Y-0.495 
X-25.207 Y-0.476 
X-25.126 Y-0.417 
X-25.078 Y-0.33 
X-25.071 Y-0.231 
X-25.107 Y-0.138 
X-25.179 Y-0.069 
X-25.273 Y-0.036 
X-25.361 Y-0.095 
X-25.34 Y-0.199 
X-25.299 Y-0.265 
G0 Z31.001 
(END TOOLPATH)
G0 Z500
G120
M1
T939 M6
( TOOL NO.    : )
(CHAMFER BEFORE REAMER)
NP3
CALL OO88 PX=-32 PY=0 PZ=0 PA=-90 PC=90 PH=1 PP=2 (WORKPLANE:CAM1 90DEG)
G15 H2T936 
(T939 :T939: D6 60° HM REJFER)
IF[VTLCN EQ 200]NALAM
G17
VC196=VTLCN
VC190=VTOFH[VC196]
VC191= VTOFD[VC196]
N1060
G56 HA DA Z500 S6400 M3 
(START 3P2)
G0 X25.299 Y0.265 
A-90 C90
Z31.001 M50 
G71 Z31.001 M53
G81 X25.299 Y0.265 Z-2. R3.7 P0 F100 
X21.479 Y13.369 
X-21.754 Y12.917 
X-25.299 Y-0.265 
G0 Z500 M54
(END TOOLPATH)
G0 Z500
G120
M1
T936 M6
( TOOL NO.    : )
(REAM Q2 SIDE 1)
NP4
CALL OO88 PX=-32 PY=0 PZ=0 PA=-90 PC=90 PH=1 PP=2 (WORKPLANE:CAM1 90DEG)
G15 H2T937 
(T936 :T936: D2 H8 HSS REAMER)
IF[VTLCN EQ 200]NALAM
G17
VC196=VTLCN
VC190=VTOFH[VC196]
VC191= VTOFD[VC196]
N1080
G56 HA DA Z500 S1200 M3 
(START 3P2)
G0 X25.299 Y0.265 
A-90 C90
Z31.001 M50 
G0 Z0.7 
G1 Z-8.6 F10 
G0 Z31.001 
G0 X21.479 Y13.369 
G0 Z0.7 
G1 Z-8.6 F10 
G0 Z31.001 
G0 X-21.754 Y12.917 
G0 Z0.7 
G1 Z-8.6 F10 
G0 Z31.001 
G0 X-25.299 Y-0.265 
G0 Z0.7 
G1 Z-8.6 F10 
G0 Z31.001 
(END TOOLPATH)
G0 Z500
G120
M1
T937 M6
( TOOL NO.    : )
(LONG DRILL SIDE 1)
NP5
CALL OO88 PX=-32 PY=0 PZ=0 PA=-90 PC=90 PH=1 PP=2 (WORKPLANE:CAM1 90DEG)
G15 H2T938 
(T937 :T937: Q2 HM BOR 20XD)
IF[VTLCN EQ 200]NALAM
G17
VC196=VTLCN
VC190=VTOFH[VC196]
VC191= VTOFD[VC196]
N1100
G56 HA DA Z500 S6400 M3 
(START 3P2)
G0 X-21.754 Y12.917 
A-90 C90
Z31.001 M50 
G71 Z31.001 M53
G81 X-21.754 Y12.917 Z-38.5 R3. P0 F580 
X21.479 Y13.369 
G0 Z500 M54
(END TOOLPATH)
G0 Z500
G120
M1
T938 M6
( TOOL NO.    : )
(FINISH Q3 SIDE 1)
NP6
CALL OO88 PX=-32 PY=0 PZ=0 PA=-90 PC=90 PH=1 PP=2 (WORKPLANE:CAM1 90DEG)
G15 H2T939 
(T938 :T938: Q2 HM SLETFRASER WALTER H3027118-2)
IF[VTLCN EQ 200]NALAM
G17
VC196=VTLCN
VC190=VTOFH[VC196]
VC191= VTOFD[VC196]
N1120
G56 HA DA Z500 S8000 M3 
(START 3P2)
G0 X-21.754 Y12.917 
A-90 C90
Z6.8 M50 
G71 Z6.8 M53
MODIN OHUL ZBEG=0. ZEND=-5.05  ZNED=0.21 DIA=3.014 ZOPP=6.8  FF=420 FFF=420 
X-21.754 Y12.917 
X21.479 Y13.369 
MODOUT 
G0 Z500 M54
(END TOOLPATH)
G0 Z500
G120
M1
T939 M6
( TOOL NO.    : )
(CHAMFER SIDE 1)
NP7
CALL OO88 PX=-32 PY=0 PZ=0 PA=-90 PC=90 PH=1 PP=2 (WORKPLANE:CAM1 90DEG)
G15 H2T240 
(T939 :T939: D6 60° HM REJFER)
IF[VTLCN EQ 200]NALAM
G17
VC196=VTLCN
VC190=VTOFH[VC196]
VC191= VTOFD[VC196]
N1140
G56 HA DA Z500 S6200 M3 
(START 3P2)
G0 X25.299 Y0.265 
A-90 C90
Z7. M50 
G0 Z2. 
G1 Z-1. F40 
X25.582 Y0.576 F50 
G3 X25.271 Y0.86 I-0.298 J-0.014 
G3 X25.326 Y-0.33 I0.028 J-0.595 
G3 X25.271 Y0.86 I-0.028 J0.595 
G3 X24.987 Y0.549 I0.014 J-0.298 
G1 X25.299 Y0.265 
G0 Z7. 
G0 X21.479 Y13.369 
G0 Z2. 
G1 Z-1. F40 
X21.747 Y12.643 F50 
G3 X22.474 Y12.911 I0.229 J0.498 
G3 X20.484 Y13.828 I-0.995 J0.459 
G3 X22.474 Y12.911 I0.995 J-0.459 
G3 X22.206 Y13.638 I-0.498 J0.229 
G1 X21.479 Y13.369 
G0 Z7. 
G0 X-21.754 Y12.917 
G0 Z2. 
G1 Z-1. F40 
X-22.276 Y12.344 F50 
G3 X-21.704 Y11.822 I0.547 J0.025 
G3 X-21.805 Y14.011 I-0.051 J1.095 
G3 X-21.704 Y11.822 I0.051 J-1.095 
G3 X-21.182 Y12.395 I-0.025 J0.547 
G1 X-21.754 Y12.917 
G0 Z7. 
G0 X-25.283 Y-0.266 
G0 Z2. 
G1 Z-1. F40 
X-25.581 Y-0.576 F50 
G3 X-25.271 Y-0.859 I0.296 J0.014 
G3 X-25.251 Y0.328 I-0.028 J0.594 
G3 X-25.626 Y-0.762 I-0.047 J-0.593 
G3 X-25.271 Y-0.859 I0.327 J0.497 
G3 X-24.988 Y-0.549 I-0.014 J0.296 
G1 X-25.283 Y-0.266 
G0 Z7. 
(END TOOLPATH)
G0 Z500
G120
M1
T240 M6
( TOOL NO.    : )
(PREDRILL Q2 SIDE 1_1)
NP8
CALL OO88 PX=32 PY=0 PZ=0 PA=-90 PC=-90 PH=1 PP=2 (WORKPLANE:CAM1 -90DEG)
G15 H2T935 
(T240 :D1,8 HM BOR 8D)
IF[VTLCN EQ 200]NALAM
G17
VC196=VTLCN
VC190=VTOFH[VC196]
VC191= VTOFD[VC196]
N1160
G56 HA DA Z500 S6400 M3 
(START 3P2)
G0 X21.754 Y12.917 
A-90 C-90
Z31.001 M50 
G71 Z31.001 M53
G81 X21.754 Y12.917 Z-8.8 R3.7 P0 F580 
X25.299 Y-0.265 
X-21.479 Y13.369 
X-25.299 Y0.265 
G0 Z500 M54
(END TOOLPATH)
G0 Z500
G120
M1
T935 M6
( TOOL NO.    : )
(SEMIFINISH Q2 SIDE 1_1)
NP9
CALL OO88 PX=32 PY=0 PZ=0 PA=-90 PC=-90 PH=1 PP=2 (WORKPLANE:CAM1 -90DEG)
G15 H2T939 
(T935 :T935: 1,5MM EM A56 0150 050 0400 120 B0909)
IF[VTLCN EQ 200]NALAM
G17
VC196=VTLCN
VC190=VTOFH[VC196]
VC191= VTOFD[VC196]
N1180
G56 HA DA Z500 S14000 M3 
(START 3P2)
G0 X21.754 Y12.917 
A-90 C-90
Z31.001 M50 
G0 Z0.7 
G1 X21.984 F140 
X21.963 Y13.014 Z0.686 
X21.902 Y13.093 Z0.672 
X21.814 Y13.139 Z0.658 
X21.714 Y13.143 Z0.644 
X21.622 Y13.105 Z0.631 
X21.555 Y13.032 Z0.617 
X21.525 Y12.937 Z0.603 
X21.538 Y12.838 Z0.589 
X21.592 Y12.754 Z0.575 
X21.676 Y12.701 Z0.561 
X21.775 Y12.688 Z0.547 
X21.87 Y12.718 Z0.533 
X21.943 Y12.785 Z0.519 
X21.981 Y12.877 Z0.506 
X21.976 Y12.977 Z0.492 
X21.93 Y13.065 Z0.478 
X21.851 Y13.125 Z0.464 
X21.754 Y13.147 Z0.45 
X21.657 Y13.125 Z0.436 
X21.578 Y13.064 Z0.422 
X21.532 Y12.976 Z0.408 
X21.528 Y12.876 Z0.394 
X21.566 Y12.784 Z0.38 
X21.64 Y12.717 Z0.367 
X21.735 Y12.688 Z0.353 
X21.834 Y12.701 Z0.339 
X21.917 Y12.755 Z0.325 
X21.971 Y12.839 Z0.311 
X21.983 Y12.937 Z0.297 
X21.953 Y13.032 Z0.283 
X21.886 Y13.106 Z0.269 
X21.793 Y13.143 Z0.255 
X21.694 Y13.139 Z0.242 
X21.606 Y13.092 Z0.228 
X21.545 Y13.013 Z0.214 
X21.524 Y12.916 Z0.2 
X21.546 Y12.819 Z0.186 
X21.607 Y12.74 Z0.172 
X21.696 Y12.694 Z0.158 
X21.795 Y12.69 Z0.144 
X21.887 Y12.729 Z0.13 
X21.954 Y12.803 Z0.117 
X21.983 Y12.898 Z0.103 
X21.97 Y12.996 Z0.089 
X21.916 Y13.08 Z0.075 
X21.832 Y13.133 Z0.061 
X21.733 Y13.146 Z0.047 
X21.638 Y13.115 Z0.033 
X21.565 Y13.048 Z0.019 
X21.528 Y12.956 Z0.005 
X21.532 Y12.856 Z-0.009 
X21.579 Y12.768 Z-0.022 
X21.658 Y12.708 Z-0.036 
X21.756 Y12.687 Z-0.05 
X21.853 Y12.709 Z-0.064 
X21.931 Y12.77 Z-0.078 
X21.977 Y12.859 Z-0.092 
X21.981 Y12.958 Z-0.106 
X21.942 Y13.05 Z-0.12 
X21.868 Y13.117 Z-0.134 
X21.773 Y13.146 Z-0.147 
X21.674 Y13.132 Z-0.161 
X21.591 Y13.078 Z-0.175 
X21.538 Y12.994 Z-0.189 
X21.525 Y12.895 Z-0.203 
X21.556 Y12.8 Z-0.217 
X21.624 Y12.727 Z-0.231 
X21.716 Y12.69 Z-0.245 
X21.815 Y12.695 Z-0.259 
X21.903 Y12.742 Z-0.272 
X21.963 Y12.821 Z-0.286 
X21.984 Y12.918 Z-0.3 
X21.962 Y13.016 Z-0.314 
X21.901 Y13.094 Z-0.328 
X21.812 Y13.139 Z-0.342 
X21.713 Y13.143 Z-0.356 
X21.621 Y13.104 Z-0.37 
X21.554 Y13.03 Z-0.384 
X21.525 Y12.935 Z-0.397 
X21.539 Y12.836 Z-0.411 
X21.593 Y12.753 Z-0.425 
X21.677 Y12.7 Z-0.439 
X21.776 Y12.688 Z-0.453 
X21.871 Y12.719 Z-0.467 
X21.944 Y12.786 Z-0.481 
X21.981 Y12.879 Z-0.495 
X21.976 Y12.978 Z-0.509 
X21.929 Y13.066 Z-0.523 
X21.85 Y13.126 Z-0.536 
X21.752 Y13.147 Z-0.55 
X21.655 Y13.124 Z-0.564 
X21.577 Y13.063 Z-0.578 
X21.532 Y12.974 Z-0.592 
X21.528 Y12.875 Z-0.606 
X21.567 Y12.783 Z-0.62 
X21.641 Y12.716 Z-0.634 
X21.737 Y12.687 Z-0.648 
X21.835 Y12.701 Z-0.661 
X21.919 Y12.756 Z-0.675 
X21.971 Y12.84 Z-0.689 
X21.983 Y12.939 Z-0.703 
X21.952 Y13.034 Z-0.717 
X21.884 Y13.107 Z-0.731 
X21.792 Y13.144 Z-0.745 
X21.692 Y13.138 Z-0.759 
X21.604 Y13.091 Z-0.773 
X21.545 Y13.012 Z-0.786 
X21.524 Y12.914 Z-0.8 
X21.547 Y12.817 Z-0.814 
X21.608 Y12.739 Z-0.828 
X21.697 Y12.694 Z-0.842 
X21.797 Y12.691 Z-0.856 
X21.888 Y12.73 Z-0.87 
X21.955 Y12.804 Z-0.884 
X21.984 Y12.899 Z-0.898 
X21.969 Y12.998 Z-0.911 
X21.915 Y13.081 Z-0.925 
X21.83 Y13.134 Z-0.939 
X21.731 Y13.146 Z-0.953 
X21.637 Y13.114 Z-0.967 
X21.564 Y13.046 Z-0.981 
X21.527 Y12.954 Z-0.995 
X21.533 Y12.854 Z-1.009 
X21.58 Y12.767 Z-1.023 
X21.66 Y12.707 Z-1.037 
X21.757 Y12.687 Z-1.05 
X21.854 Y12.71 Z-1.064 
X21.932 Y12.771 Z-1.078 
X21.977 Y12.86 Z-1.092 
X21.98 Y12.96 Z-1.106 
X21.941 Y13.051 Z-1.12 
X21.867 Y13.117 Z-1.134 
X21.771 Y13.146 Z-1.148 
X21.673 Y13.132 Z-1.162 
X21.589 Y13.077 Z-1.175 
X21.537 Y12.992 Z-1.189 
X21.525 Y12.893 Z-1.203 
X21.557 Y12.799 Z-1.217 
X21.625 Y12.726 Z-1.231 
X21.718 Y12.69 Z-1.245 
X21.817 Y12.695 Z-1.259 
X21.905 Y12.743 Z-1.273 
X21.964 Y12.823 Z-1.287 
X21.984 Y12.92 Z-1.3 
X21.961 Y13.017 Z-1.314 
X21.899 Y13.095 Z-1.328 
X21.81 Y13.14 Z-1.342 
X21.711 Y13.143 Z-1.356 
X21.619 Y13.103 Z-1.37 
X21.553 Y13.029 Z-1.384 
X21.525 Y12.933 Z-1.398 
X21.539 Y12.835 Z-1.412 
X21.594 Y12.752 Z-1.426 
X21.679 Y12.699 Z-1.439 
X21.778 Y12.688 Z-1.453 
X21.872 Y12.719 Z-1.467 
X21.945 Y12.788 Z-1.481 
X21.981 Y12.881 Z-1.495 
X21.975 Y12.98 Z-1.509 
X21.928 Y13.067 Z-1.523 
X21.848 Y13.127 Z-1.537 
X21.75 Y13.147 Z-1.551 
X21.654 Y13.124 Z-1.564 
X21.576 Y13.062 Z-1.578 
X21.531 Y12.972 Z-1.592 
X21.528 Y12.873 Z-1.606 
X21.568 Y12.782 Z-1.62 
X21.643 Y12.716 Z-1.634 
X21.738 Y12.687 Z-1.648 
X21.837 Y12.702 Z-1.662 
X21.92 Y12.757 Z-1.676 
X21.972 Y12.842 Z-1.689 
X21.983 Y12.941 Z-1.703 
X21.951 Y13.035 Z-1.717 
X21.883 Y13.107 Z-1.731 
X21.79 Y13.144 Z-1.745 
X21.691 Y13.138 Z-1.759 
X21.603 Y13.09 Z-1.773 
X21.544 Y13.01 Z-1.787 
X21.524 Y12.912 Z-1.801 
X21.548 Y12.816 Z-1.814 
X21.61 Y12.738 Z-1.828 
X21.699 Y12.693 Z-1.842 
X21.799 Y12.691 Z-1.856 
X21.89 Y12.731 Z-1.87 
X21.956 Y12.806 Z-1.884 
X21.984 Y12.901 Z-1.898 
X21.969 Y13. Z-1.912 
X21.914 Y13.083 Z-1.926 
X21.829 Y13.134 Z-1.94 
X21.73 Y13.145 Z-1.953 
X21.635 Y13.114 Z-1.967 
X21.563 Y13.045 Z-1.981 
X21.527 Y12.952 Z-1.995 
X21.533 Y12.853 Z-2.009 
X21.581 Y12.765 Z-2.023 
X21.661 Y12.706 Z-2.037 
X21.759 Y12.687 Z-2.051 
X21.856 Y12.71 Z-2.065 
X21.933 Y12.773 Z-2.078 
X21.978 Y12.862 Z-2.092 
X21.98 Y12.961 Z-2.106 
X21.94 Y13.053 Z-2.12 
X21.865 Y13.118 Z-2.134 
X21.769 Y13.146 Z-2.148 
X21.671 Y13.131 Z-2.162 
X21.588 Y13.076 Z-2.176 
X21.536 Y12.991 Z-2.19 
X21.526 Y12.892 Z-2.203 
X21.558 Y12.797 Z-2.217 
X21.626 Y12.725 Z-2.231 
X21.719 Y12.689 Z-2.245 
X21.819 Y12.696 Z-2.259 
X21.906 Y12.744 Z-2.273 
X21.965 Y12.824 Z-2.287 
X21.984 Y12.922 Z-2.301 
X21.96 Y13.019 Z-2.315 
X21.898 Y13.096 Z-2.328 
X21.809 Y13.14 Z-2.342 
X21.709 Y13.142 Z-2.356 
X21.618 Y13.102 Z-2.37 
X21.552 Y13.027 Z-2.384 
X21.525 Y12.931 Z-2.398 
X21.54 Y12.833 Z-2.412 
X21.595 Y12.75 Z-2.426 
X21.681 Y12.699 Z-2.44 
X21.78 Y12.688 Z-2.454 
X21.874 Y12.72 Z-2.467 
X21.946 Y12.789 Z-2.481 
X21.982 Y12.882 Z-2.495 
X21.975 Y12.982 Z-2.509 
X21.927 Y13.069 Z-2.523 
X21.846 Y13.127 Z-2.537 
X21.749 Y13.147 Z-2.551 
X21.652 Y13.123 Z-2.565 
X21.575 Y13.06 Z-2.579 
X21.531 Y12.971 Z-2.592 
X21.529 Y12.871 Z-2.606 
X21.569 Y12.78 Z-2.62 
X21.644 Y12.715 Z-2.634 
X21.74 Y12.687 Z-2.648 
X21.838 Y12.703 Z-2.662 
X21.921 Y12.758 Z-2.676 
X21.972 Y12.844 Z-2.69 
X21.983 Y12.943 Z-2.704 
X21.95 Y13.037 Z-2.717 
X21.881 Y13.108 Z-2.731 
X21.788 Y13.144 Z-2.745 
X21.689 Y13.137 Z-2.759 
X21.602 Y13.089 Z-2.773 
X21.543 Y13.008 Z-2.787 
X21.524 Y12.911 Z-2.801 
X21.548 Y12.814 Z-2.815 
X21.611 Y12.737 Z-2.829 
X21.701 Y12.693 Z-2.843 
X21.8 Y12.691 Z-2.856 
X21.891 Y12.732 Z-2.87 
X21.956 Y12.807 Z-2.884 
X21.984 Y12.903 Z-2.898 
X21.968 Y13.001 Z-2.912 
X21.912 Y13.084 Z-2.926 
X21.827 Y13.135 Z-2.94 
X21.728 Y13.145 Z-2.954 
X21.634 Y13.113 Z-2.968 
X21.562 Y13.043 Z-2.981 
X21.527 Y12.95 Z-2.995 
X21.534 Y12.851 Z-3.009 
X21.582 Y12.764 Z-3.023 
X21.663 Y12.706 Z-3.037 
X21.761 Y12.687 Z-3.051 
X21.857 Y12.711 Z-3.065 
X21.935 Y12.774 Z-3.079 
X21.978 Y12.864 Z-3.093 
X21.98 Y12.963 Z-3.106 
X21.939 Y13.054 Z-3.12 
X21.864 Y13.119 Z-3.134 
X21.768 Y13.146 Z-3.148 
X21.669 Y13.131 Z-3.162 
X21.587 Y13.075 Z-3.176 
X21.536 Y12.989 Z-3.19 
X21.526 Y12.89 Z-3.204 
X21.559 Y12.796 Z-3.218 
X21.628 Y12.725 Z-3.231 
X21.721 Y12.689 Z-3.245 
X21.82 Y12.696 Z-3.259 
X21.907 Y12.745 Z-3.273 
X21.966 Y12.826 Z-3.287 
X21.984 Y12.924 Z-3.301 
X21.96 Y13.02 Z-3.315 
X21.897 Y13.097 Z-3.329 
X21.807 Y13.141 Z-3.343 
X21.707 Y13.142 Z-3.357 
X21.617 Y13.101 Z-3.37 
X21.552 Y13.026 Z-3.384 
X21.525 Y12.93 Z-3.398 
X21.541 Y12.831 Z-3.412 
X21.597 Y12.749 Z-3.426 
X21.682 Y12.698 Z-3.44 
X21.781 Y12.688 Z-3.454 
X21.875 Y12.721 Z-3.468 
X21.947 Y12.791 Z-3.482 
X21.982 Y12.884 Z-3.495 
X21.974 Y12.983 Z-3.509 
X21.926 Y13.07 Z-3.523 
X21.845 Y13.128 Z-3.537 
X21.747 Y13.147 Z-3.551 
X21.65 Y13.122 Z-3.565 
X21.573 Y13.059 Z-3.579 
X21.53 Y12.969 Z-3.593 
X21.529 Y12.87 Z-3.607 
X21.57 Y12.779 Z-3.62 
X21.646 Y12.714 Z-3.634 
X21.742 Y12.687 Z-3.648 
X21.84 Y12.703 Z-3.662 
X21.922 Y12.759 Z-3.676 
X21.973 Y12.845 Z-3.69 
X21.983 Y12.944 Z-3.704 
X21.95 Y13.038 Z-3.718 
X21.88 Y13.109 Z-3.732 
X21.787 Y13.144 Z-3.745 
X21.687 Y13.137 Z-3.759 
X21.601 Y13.088 Z-3.773 
X21.543 Y13.007 Z-3.787 
X21.524 Y12.909 Z-3.801 
X21.549 Y12.813 Z-3.815 
X21.612 Y12.736 Z-3.829 
X21.702 Y12.693 Z-3.843 
X21.802 Y12.692 Z-3.857 
X21.893 Y12.733 Z-3.871 
X21.957 Y12.809 Z-3.884 
X21.984 Y12.905 Z-3.898 
X21.968 Y13.003 Z-3.912 
X21.911 Y13.085 Z-3.926 
X21.825 Y13.135 Z-3.94 
X21.726 Y13.145 Z-3.954 
X21.632 Y13.112 Z-3.968 
X21.561 Y13.042 Z-3.982 
X21.526 Y12.949 Z-3.996 
X21.534 Y12.849 Z-4.009 
X21.583 Y12.763 Z-4.023 
X21.664 Y12.705 Z-4.037 
X21.762 Y12.687 Z-4.051 
X21.859 Y12.712 Z-4.065 
X21.936 Y12.775 Z-4.079 
X21.978 Y12.865 Z-4.093 
X21.979 Y12.965 Z-4.107 
X21.938 Y13.055 Z-4.121 
X21.862 Y13.12 Z-4.134 
X21.766 Y13.146 Z-4.148 
X21.668 Y13.13 Z-4.162 
X21.586 Y13.073 Z-4.176 
X21.535 Y12.987 Z-4.19 
X21.526 Y12.888 Z-4.204 
X21.559 Y12.795 Z-4.218 
X21.629 Y12.724 Z-4.232 
X21.723 Y12.689 Z-4.246 
X21.822 Y12.697 Z-4.26 
X21.909 Y12.746 Z-4.273 
X21.966 Y12.827 Z-4.287 
X21.984 Y12.925 Z-4.301 
X21.959 Y13.022 Z-4.315 
X21.895 Y13.098 Z-4.329 
X21.805 Y13.141 Z-4.343 
X21.706 Y13.142 Z-4.357 
X21.615 Y13.1 Z-4.371 
X21.551 Y13.024 Z-4.385 
X21.525 Y12.928 Z-4.398 
X21.541 Y12.83 Z-4.412 
X21.598 Y12.748 Z-4.426 
X21.684 Y12.698 Z-4.44 
X21.783 Y12.689 Z-4.454 
X21.877 Y12.722 Z-4.468 
X21.948 Y12.792 Z-4.482 
X21.982 Y12.886 Z-4.496 
X21.974 Y12.985 Z-4.51 
X21.925 Y13.071 Z-4.523 
X21.843 Y13.129 Z-4.537 
X21.745 Y13.147 Z-4.551 
X21.649 Y13.121 Z-4.565 
X21.572 Y13.058 Z-4.579 
X21.53 Y12.967 Z-4.593 
Y12.868 Z-4.607 
X21.571 Y12.777 Z-4.621 
X21.647 Y12.713 Z-4.635 
X21.743 Y12.687 Z-4.648 
X21.841 Y12.704 Z-4.662 
X21.923 Y12.761 Z-4.676 
X21.973 Y12.847 Z-4.69 
X21.982 Y12.946 Z-4.704 
X21.949 Y13.04 Z-4.718 
X21.878 Y13.11 Z-4.732 
X21.785 Y13.145 Z-4.746 
X21.686 Y13.136 Z-4.76 
X21.599 Y13.087 Z-4.774 
X21.542 Y13.005 Z-4.787 
X21.524 Y12.907 Z-4.801 
X21.55 Y12.811 Z-4.815 
X21.614 Y12.735 Z-4.829 
X21.704 Y12.692 Z-4.843 
X21.804 Z-4.857 
X21.894 Y12.734 Z-4.871 
X21.958 Y12.81 Z-4.885 
X21.984 Y12.906 Z-4.899 
X21.967 Y13.004 Z-4.912 
X21.91 Y13.086 Z-4.926 
X21.824 Y13.136 Z-4.94 
X21.725 Y13.145 Z-4.954 
X21.631 Y13.111 Z-4.968 
X21.56 Y13.041 Z-4.982 
X21.526 Y12.947 Z-4.996 
X21.535 Y12.848 Z-5.01 
X21.585 Y12.762 Z-5.024 
X21.666 Y12.704 Z-5.037 
X21.764 Y12.687 Z-5.051 
X21.86 Y12.713 Z-5.065 
X21.937 Y12.777 Z-5.079 
X21.979 Y12.867 Z-5.093 
Y12.966 Z-5.107 
X21.937 Y13.057 Z-5.121 
X21.861 Y13.121 Z-5.135 
X21.764 Y13.147 Z-5.149 
X21.666 Y13.129 Z-5.163 
X21.585 Y13.072 Z-5.176 
X21.535 Y12.986 Z-5.19 
X21.526 Y12.887 Z-5.204 
X21.56 Y12.793 Z-5.218 
X21.631 Y12.723 Z-5.232 
X21.724 Y12.689 Z-5.246 
X21.824 Y12.697 Z-5.26 
X21.91 Y12.747 Z-5.274 
X21.967 Y12.829 Z-5.288 
X21.984 Y12.927 Z-5.301 
X21.958 Y13.023 Z-5.315 
X21.894 Y13.099 Z-5.329 
X21.804 Y13.141 Z-5.343 
X21.704 Z-5.357 
X21.614 Y13.099 Z-5.371 
X21.55 Y13.023 Z-5.385 
X21.524 Y12.926 Z-5.399 
X21.542 Y12.828 Z-5.413 
X21.599 Y12.747 Z-5.426 
X21.686 Y12.697 Z-5.44 
X21.785 Y12.689 Z-5.454 
X21.878 Y12.723 Z-5.468 
X21.949 Y12.794 Z-5.482 
X21.982 Y12.887 Z-5.496 
X21.973 Y12.986 Z-5.51 
X21.923 Y13.073 Z-5.524 
X21.842 Y13.129 Z-5.538 
X21.744 Y13.146 Z-5.551 
X21.647 Y13.12 Z-5.565 
X21.571 Y13.056 Z-5.579 
X21.53 Y12.966 Z-5.593 
Y12.866 Z-5.607 
X21.572 Y12.776 Z-5.621 
X21.649 Y12.712 Z-5.635 
X21.745 Y12.687 Z-5.649 
X21.843 Y12.705 Z-5.663 
X21.924 Y12.762 Z-5.677 
X21.974 Y12.848 Z-5.69 
X21.982 Y12.948 Z-5.704 
X21.948 Y13.041 Z-5.718 
X21.877 Y13.111 Z-5.732 
X21.783 Y13.145 Z-5.746 
X21.684 Y13.136 Z-5.76 
X21.598 Y13.086 Z-5.774 
X21.541 Y13.004 Z-5.788 
X21.525 Y12.906 Z-5.802 
X21.551 Y12.81 Z-5.815 
X21.615 Y12.734 Z-5.829 
X21.706 Y12.692 Z-5.843 
X21.805 Z-5.857 
X21.895 Y12.735 Z-5.871 
X21.959 Y12.812 Z-5.885 
X21.984 Y12.908 Z-5.899 
X21.966 Y13.006 Z-5.913 
X21.909 Y13.087 Z-5.927 
X21.822 Y13.136 Z-5.94 
X21.723 Y13.145 Z-5.954 
X21.63 Y13.11 Z-5.968 
X21.56 Y13.039 Z-5.982 
X21.526 Y12.945 Z-5.996 
X21.535 Y12.846 Z-6.01 
X21.586 Y12.76 Z-6.024 
X21.668 Y12.704 Z-6.038 
X21.766 Y12.687 Z-6.052 
X21.862 Y12.713 Z-6.065 
X21.938 Y12.778 Z-6.079 
X21.979 Y12.869 Z-6.093 
X21.978 Y12.968 Z-6.107 
X21.936 Y13.058 Z-6.121 
X21.859 Y13.122 Z-6.135 
X21.763 Y13.147 Z-6.149 
X21.665 Y13.129 Z-6.163 
X21.584 Y13.071 Z-6.177 
X21.534 Y12.984 Z-6.191 
X21.526 Y12.885 Z-6.204 
X21.561 Y12.792 Z-6.218 
X21.632 Y12.722 Z-6.232 
X21.726 Y12.688 Z-6.246 
X21.825 Y12.698 Z-6.26 
X21.911 Y12.748 Z-6.274 
X21.967 Y12.831 Z-6.288 
X21.984 Y12.929 Z-6.302 
X21.957 Y13.025 Z-6.316 
X21.893 Y13.1 Z-6.329 
X21.802 Y13.142 Z-6.343 
X21.702 Y13.141 Z-6.357 
X21.613 Y13.098 Z-6.371 
X21.549 Y13.021 Z-6.385 
X21.524 Y12.925 Z-6.399 
X21.543 Y12.827 Z-6.413 
X21.6 Y12.746 Z-6.427 
X21.687 Y12.697 Z-6.441 
X21.786 Y12.689 Z-6.454 
X21.88 Y12.724 Z-6.468 
X21.949 Y12.795 Z-6.482 
X21.983 Y12.889 Z-6.496 
X21.973 Y12.988 Z-6.51 
X21.922 Y13.074 Z-6.524 
X21.84 Y13.13 Z-6.538 
X21.742 Y13.146 Z-6.552 
X21.646 Y13.12 Z-6.566 
X21.57 Y13.055 Z-6.58 
X21.529 Y12.964 Z-6.593 
X21.53 Y12.865 Z-6.607 
X21.573 Y12.775 Z-6.621 
X21.65 Y12.712 Z-6.635 
X21.747 Y12.687 Z-6.649 
X21.845 Y12.705 Z-6.663 
X21.926 Y12.763 Z-6.677 
X21.974 Y12.85 Z-6.691 
X21.982 Y12.949 Z-6.705 
X21.947 Y13.043 Z-6.718 
X21.876 Y13.112 Z-6.732 
X21.782 Y13.145 Z-6.746 
X21.682 Y13.135 Z-6.76 
X21.597 Y13.084 Z-6.774 
X21.541 Y13.002 Z-6.788 
X21.525 Y12.904 Z-6.802 
X21.552 Y12.808 Z-6.816 
X21.617 Y12.733 Z-6.83 
X21.707 Y12.692 Z-6.843 
X21.807 Y12.693 Z-6.857 
X21.897 Y12.736 Z-6.871 
X21.96 Y12.813 Z-6.885 
X21.984 Y12.91 Z-6.899 
X21.966 Y13.008 Z-6.913 
X21.907 Y13.088 Z-6.927 
X21.821 Y13.137 Z-6.941 
X21.721 Y13.144 Z-6.955 
X21.628 Y13.109 Z-6.968 
X21.559 Y13.038 Z-6.982 
X21.526 Y12.944 Z-6.996 
X21.536 Y12.845 Z-7.01 
X21.587 Y12.759 Z-7.024 
X21.669 Y12.703 Z-7.038 
X21.768 Y12.687 Z-7.052 
X21.863 Y12.714 Z-7.066 
X21.939 Y12.779 Z-7.08 
X21.98 Y12.87 Z-7.094 
X21.978 Y12.97 Z-7.107 
X21.935 Y13.059 Z-7.121 
X21.857 Y13.122 Z-7.135 
X21.761 Y13.147 Z-7.149 
X21.663 Y13.128 Z-7.163 
X21.582 Y13.07 Z-7.177 
X21.534 Y12.983 Z-7.191 
X21.527 Y12.883 Z-7.205 
X21.562 Y12.79 Z-7.219 
X21.634 Y12.721 Z-7.232 
X21.728 Y12.688 Z-7.246 
X21.827 Y12.698 Z-7.26 
X21.912 Y12.75 Z-7.274 
X21.968 Y12.832 Z-7.288 
X21.984 Y12.93 Z-7.302 
X21.957 Y13.026 Z-7.316 
X21.891 Y13.101 Z-7.33 
X21.8 Y13.142 Z-7.344 
X21.701 Y13.14 Z-7.357 
X21.611 Y13.097 Z-7.371 
X21.549 Y13.02 Z-7.385 
X21.524 Y12.923 Z-7.399 
X21.543 Y12.825 Z-7.413 
X21.602 Y12.745 Z-7.427 
X21.689 Y12.696 Z-7.441 
X21.788 Y12.689 Z-7.455 
X21.881 Y12.725 Z-7.469 
X21.95 Y12.797 Z-7.482 
X21.983 Y12.891 Z-7.496 
X21.972 Y12.99 Z-7.51 
X21.921 Y13.075 Z-7.524 
X21.839 Y13.131 Z-7.538 
X21.74 Y13.146 Z-7.55 
X21.644 Y13.119 
X21.569 Y13.053 
X21.529 Y12.962 
X21.531 Y12.863 
X21.574 Y12.773 
X21.652 Y12.711 
X21.748 Y12.687 
X21.846 Y12.706 
X21.927 Y12.765 
X21.975 Y12.852 
X21.982 Y12.951 
X21.946 Y13.044 
X21.874 Y13.113 
X21.78 Y13.145 
X21.692 Y13.086 
X21.713 Y12.983 
X21.754 Y12.917 
G0 Z31.001 
G0 X25.299 Y-0.265 
G0 Z0.7 
G1 X25.529 F140 
X25.507 Y-0.168 Z0.686 
X25.446 Y-0.089 Z0.672 
X25.358 Y-0.043 Z0.658 
X25.259 Y-0.038 Z0.644 
X25.167 Y-0.077 Z0.631 
X25.099 Y-0.15 Z0.617 
X25.069 Y-0.245 Z0.603 
X25.083 Y-0.344 Z0.589 
X25.136 Y-0.428 Z0.575 
X25.22 Y-0.481 Z0.561 
X25.319 Y-0.494 Z0.547 
X25.414 Y-0.464 Z0.533 
X25.487 Y-0.397 Z0.519 
X25.525 Y-0.305 Z0.506 
X25.521 Y-0.205 Z0.492 
X25.475 Y-0.117 Z0.478 
X25.395 Y-0.056 Z0.464 
X25.298 Y-0.035 Z0.45 
X25.201 Y-0.057 Z0.436 
X25.122 Y-0.117 Z0.422 
X25.076 Y-0.206 Z0.408 
X25.072 Y-0.305 Z0.394 
X25.111 Y-0.397 Z0.38 
X25.184 Y-0.464 Z0.367 
X25.279 Y-0.494 Z0.353 
X25.378 Y-0.481 Z0.339 
X25.462 Y-0.427 Z0.325 
X25.515 Y-0.343 Z0.311 
X25.528 Y-0.244 Z0.297 
X25.497 Y-0.149 Z0.283 
X25.43 Y-0.076 Z0.269 
X25.338 Y-0.038 Z0.255 
X25.238 Y-0.043 Z0.242 
X25.15 Y-0.089 Z0.228 
X25.09 Y-0.168 Z0.214 
X25.069 Y-0.266 Z0.2 
X25.091 Y-0.363 Z0.186 
X25.151 Y-0.442 Z0.172 
X25.24 Y-0.487 Z0.158 
X25.339 Y-0.491 Z0.144 
X25.431 Y-0.453 Z0.13 
X25.498 Y-0.379 Z0.117 
X25.528 Y-0.284 Z0.103 
X25.514 Y-0.185 Z0.089 
X25.46 Y-0.102 Z0.075 
X25.376 Y-0.048 Z0.061 
X25.277 Y-0.036 Z0.047 
X25.183 Y-0.066 Z0.033 
X25.11 Y-0.134 Z0.019 
X25.072 Y-0.226 Z0.005 
X25.077 Y-0.326 Z-0.009 
X25.123 Y-0.414 Z-0.022 
X25.203 Y-0.474 Z-0.036 
X25.3 Y-0.495 Z-0.05 
X25.397 Y-0.473 Z-0.064 
X25.476 Y-0.412 Z-0.078 
X25.521 Y-0.323 Z-0.092 
X25.525 Y-0.224 Z-0.106 
X25.486 Y-0.132 Z-0.12 
X25.412 Y-0.065 Z-0.134 
X25.317 Y-0.036 Z-0.147 
X25.219 Y-0.049 Z-0.161 
X25.135 Y-0.103 Z-0.175 
X25.082 Y-0.188 Z-0.189 
X25.07 Y-0.287 Z-0.203 
X25.1 Y-0.381 Z-0.217 
X25.168 Y-0.454 Z-0.231 
X25.26 Y-0.492 Z-0.245 
X25.36 Y-0.487 Z-0.259 
X25.448 Y-0.44 Z-0.272 
X25.508 Y-0.361 Z-0.286 
X25.529 Y-0.263 Z-0.3 
X25.506 Y-0.166 Z-0.314 
X25.445 Y-0.088 Z-0.328 
X25.356 Y-0.042 Z-0.342 
X25.257 Y-0.039 Z-0.356 
X25.165 Y-0.078 Z-0.37 
X25.099 Y-0.152 Z-0.384 
X25.069 Y-0.247 Z-0.397 
X25.083 Y-0.345 Z-0.411 
X25.137 Y-0.429 Z-0.425 
X25.222 Y-0.482 Z-0.439 
X25.321 Y-0.494 Z-0.453 
X25.415 Y-0.463 Z-0.467 
X25.488 Y-0.395 Z-0.481 
X25.525 Y-0.303 Z-0.495 
X25.52 Y-0.203 Z-0.509 
X25.473 Y-0.115 Z-0.523 
X25.394 Y-0.056 Z-0.536 
X25.296 Y-0.035 Z-0.55 
X25.199 Y-0.057 Z-0.564 
X25.121 Y-0.119 Z-0.578 
X25.076 Y-0.208 Z-0.592 
X25.073 Y-0.307 Z-0.606 
X25.112 Y-0.399 Z-0.62 
X25.186 Y-0.465 Z-0.634 
X25.281 Y-0.494 Z-0.648 
X25.379 Y-0.48 Z-0.661 
X25.463 Y-0.426 Z-0.675 
X25.516 Y-0.341 Z-0.689 
X25.528 Y-0.242 Z-0.703 
X25.497 Y-0.148 Z-0.717 
X25.429 Y-0.075 Z-0.731 
X25.336 Y-0.038 Z-0.745 
X25.237 Y-0.043 Z-0.759 
X25.149 Y-0.09 Z-0.773 
X25.089 Y-0.17 Z-0.786 
X25.069 Y-0.268 Z-0.8 
X25.091 Y-0.364 Z-0.814 
X25.153 Y-0.443 Z-0.828 
X25.242 Y-0.488 Z-0.842 
X25.341 Y-0.491 Z-0.856 
X25.433 Y-0.452 Z-0.87 
X25.499 Y-0.378 Z-0.884 
X25.528 Y-0.282 Z-0.898 
X25.514 Y-0.184 Z-0.911 
X25.459 Y-0.1 Z-0.925 
X25.375 Y-0.048 Z-0.939 
X25.276 Y-0.036 Z-0.953 
X25.181 Y-0.067 Z-0.967 
X25.109 Y-0.135 Z-0.981 
X25.072 Y-0.228 Z-0.995 
X25.077 Y-0.327 Z-1.009 
X25.124 Y-0.415 Z-1.023 
X25.204 Y-0.475 Z-1.037 
X25.302 Y-0.495 Z-1.05 
X25.399 Y-0.472 Z-1.064 
X25.477 Y-0.41 Z-1.078 
X25.522 Y-0.321 Z-1.092 
X25.525 Y-0.222 Z-1.106 
X25.485 Y-0.13 Z-1.12 
X25.411 Y-0.064 Z-1.134 
X25.316 Y-0.036 Z-1.148 
X25.217 Y-0.05 Z-1.162 
X25.134 Y-0.105 Z-1.175 
X25.081 Y-0.189 Z-1.189 
X25.07 Y-0.288 Z-1.203 
X25.101 Y-0.383 Z-1.217 
X25.169 Y-0.455 Z-1.231 
X25.262 Y-0.492 Z-1.245 
X25.361 Y-0.486 Z-1.259 
X25.449 Y-0.439 Z-1.273 
X25.508 Y-0.359 Z-1.287 
X25.529 Y-0.262 Z-1.3 
X25.506 Y-0.165 Z-1.314 
X25.444 Y-0.087 Z-1.328 
X25.355 Y-0.042 Z-1.342 
X25.255 Y-0.039 Z-1.356 
X25.164 Y-0.079 Z-1.37 
X25.098 Y-0.153 Z-1.384 
X25.069 Y-0.248 Z-1.398 
X25.084 Y-0.347 Z-1.412 
X25.139 Y-0.43 Z-1.426 
X25.223 Y-0.482 Z-1.439 
X25.322 Y-0.494 Z-1.453 
X25.417 Y-0.462 Z-1.467 
X25.489 Y-0.394 Z-1.481 
X25.526 Y-0.301 Z-1.495 
X25.52 Y-0.202 Z-1.509 
X25.472 Y-0.114 Z-1.523 
X25.392 Y-0.055 Z-1.537 
X25.295 Y-0.035 Z-1.551 
X25.198 Y-0.058 Z-1.564 
X25.12 Y-0.12 Z-1.578 
X25.075 Y-0.209 Z-1.592 
X25.073 Y-0.309 Z-1.606 
X25.113 Y-0.4 Z-1.62 
X25.187 Y-0.466 Z-1.634 
X25.283 Y-0.494 Z-1.648 
X25.381 Y-0.48 Z-1.662 
X25.464 Y-0.425 Z-1.676 
X25.516 Y-0.34 Z-1.689 
X25.527 Y-0.241 Z-1.703 
X25.496 Y-0.146 Z-1.717 
X25.427 Y-0.074 Z-1.731 
X25.334 Y-0.038 Z-1.745 
X25.235 Y-0.044 Z-1.759 
X25.148 Y-0.091 Z-1.773 
X25.088 Y-0.172 Z-1.787 
X25.069 Y-0.269 Z-1.801 
X25.092 Y-0.366 Z-1.814 
X25.154 Y-0.444 Z-1.828 
X25.243 Y-0.488 Z-1.842 
X25.343 Y-0.491 Z-1.856 
X25.434 Y-0.451 Z-1.87 
X25.5 Y-0.376 Z-1.884 
X25.528 Y-0.281 Z-1.898 
X25.513 Y-0.182 Z-1.912 
X25.458 Y-0.099 Z-1.926 
X25.373 Y-0.047 Z-1.94 
X25.274 Y-0.036 Z-1.953 
X25.18 Y-0.068 Z-1.967 
X25.108 Y-0.137 Z-1.981 
X25.071 Y-0.23 Z-1.995 
X25.078 Y-0.329 Z-2.009 
X25.125 Y-0.416 Z-2.023 
X25.206 Y-0.475 Z-2.037 
X25.303 Y-0.495 Z-2.051 
X25.4 Y-0.471 Z-2.065 
X25.478 Y-0.409 Z-2.078 
X25.522 Y-0.32 Z-2.092 
X25.524 Y-0.22 Z-2.106 
X25.484 Y-0.129 Z-2.12 
X25.409 Y-0.063 Z-2.134 
X25.314 Y-0.035 Z-2.148 
X25.215 Y-0.051 Z-2.162 
X25.133 Y-0.106 Z-2.176 
X25.081 Y-0.191 Z-2.19 
X25.07 Y-0.29 Z-2.203 
X25.102 Y-0.384 Z-2.217 
X25.171 Y-0.456 Z-2.231 
X25.264 Y-0.492 Z-2.245 
X25.363 Y-0.486 Z-2.259 
X25.45 Y-0.438 Z-2.273 
X25.509 Y-0.357 Z-2.287 
X25.529 Y-0.26 Z-2.301 
X25.505 Y-0.163 Z-2.315 
X25.442 Y-0.085 Z-2.328 
X25.353 Y-0.041 Z-2.342 
X25.254 Y-0.039 Z-2.356 
X25.162 Y-0.08 Z-2.37 
X25.097 Y-0.155 Z-2.384 
X25.069 Y-0.25 Z-2.398 
X25.084 Y-0.349 Z-2.412 
X25.14 Y-0.431 Z-2.426 
X25.225 Y-0.483 Z-2.44 
X25.324 Y-0.494 Z-2.454 
X25.418 Y-0.461 Z-2.467 
X25.49 Y-0.392 Z-2.481 
X25.526 Y-0.299 Z-2.495 
X25.519 Y-0.2 Z-2.509 
X25.471 Y-0.113 Z-2.523 
X25.391 Y-0.054 Z-2.537 
X25.293 Y-0.035 Z-2.551 
X25.196 Y-0.059 Z-2.565 
X25.119 Y-0.121 Z-2.579 
X25.075 Y-0.211 Z-2.592 
X25.073 Y-0.31 Z-2.606 
X25.114 Y-0.401 Z-2.62 
X25.189 Y-0.467 Z-2.634 
X25.284 Y-0.494 Z-2.648 
X25.383 Y-0.479 Z-2.662 
X25.465 Y-0.423 Z-2.676 
X25.517 Y-0.338 Z-2.69 
X25.527 Y-0.239 Z-2.704 
X25.495 Y-0.145 Z-2.717 
X25.426 Y-0.073 Z-2.731 
X25.333 Y-0.037 Z-2.745 
X25.233 Y-0.044 Z-2.759 
X25.146 Y-0.093 Z-2.773 
X25.088 Y-0.173 Z-2.787 
X25.069 Y-0.271 Z-2.801 
X25.093 Y-0.368 Z-2.815 
X25.155 Y-0.445 Z-2.829 
X25.245 Y-0.489 Z-2.843 
X25.345 Y-0.49 Z-2.856 
X25.435 Y-0.45 Z-2.87 
X25.501 Y-0.375 Z-2.884 
X25.528 Y-0.279 Z-2.898 
X25.513 Y-0.18 Z-2.912 
X25.457 Y-0.098 Z-2.926 
X25.371 Y-0.047 Z-2.94 
X25.272 Y-0.036 Z-2.954 
X25.178 Y-0.069 Z-2.968 
X25.107 Y-0.138 Z-2.981 
X25.071 Y-0.231 Z-2.995 
X25.078 Y-0.331 Z-3.009 
X25.127 Y-0.418 Z-3.023 
X25.207 Y-0.476 Z-3.037 
X25.305 Y-0.495 Z-3.051 
X25.402 Y-0.471 Z-3.065 
X25.479 Y-0.408 Z-3.079 
X25.522 Y-0.318 Z-3.093 
X25.524 Y-0.219 Z-3.106 
X25.483 Y-0.128 Z-3.12 
X25.408 Y-0.063 Z-3.134 
X25.312 Y-0.035 Z-3.148 
X25.214 Y-0.051 Z-3.162 
X25.131 Y-0.107 Z-3.176 
X25.08 Y-0.193 Z-3.19 
X25.07 Y-0.292 Z-3.204 
X25.103 Y-0.386 Z-3.218 
X25.172 Y-0.457 Z-3.231 
X25.265 Y-0.493 Z-3.245 
X25.365 Y-0.485 Z-3.259 
X25.452 Y-0.437 Z-3.273 
X25.51 Y-0.356 Z-3.287 
X25.529 Y-0.258 Z-3.301 
X25.504 Y-0.162 Z-3.315 
X25.441 Y-0.084 Z-3.329 
X25.351 Y-0.041 Z-3.343 
X25.252 Y-0.04 Z-3.357 
X25.161 Y-0.081 Z-3.37 
X25.096 Y-0.156 Z-3.384 
X25.069 Y-0.252 Z-3.398 
X25.085 Y-0.35 Z-3.412 
X25.141 Y-0.432 Z-3.426 
X25.227 Y-0.483 Z-3.44 
X25.326 Y-0.493 Z-3.454 
X25.42 Y-0.46 Z-3.468 
X25.491 Y-0.391 Z-3.482 
X25.526 Y-0.298 Z-3.495 
X25.519 Y-0.198 Z-3.509 
X25.47 Y-0.112 Z-3.523 
X25.389 Y-0.054 Z-3.537 
X25.291 Y-0.035 Z-3.551 
X25.195 Y-0.06 Z-3.565 
X25.118 Y-0.123 Z-3.579 
X25.075 Y-0.213 Z-3.593 
X25.074 Y-0.312 Z-3.607 
X25.115 Y-0.403 Z-3.62 
X25.19 Y-0.468 Z-3.634 
X25.286 Y-0.495 Z-3.648 
X25.384 Y-0.478 Z-3.662 
X25.466 Y-0.422 Z-3.676 
X25.517 Y-0.336 Z-3.69 
X25.527 Y-0.237 Z-3.704 
X25.494 Y-0.143 Z-3.718 
X25.424 Y-0.072 Z-3.732 
X25.331 Y-0.037 Z-3.745 
X25.232 Y-0.045 Z-3.759 
X25.145 Y-0.094 Z-3.773 
X25.087 Y-0.175 Z-3.787 
X25.069 Y-0.273 Z-3.801 
X25.094 Y-0.369 Z-3.815 
X25.157 Y-0.446 Z-3.829 
X25.247 Y-0.489 Z-3.843 
X25.346 Y-0.49 Z-3.857 
X25.437 Y-0.449 Z-3.871 
X25.502 Y-0.373 Z-3.884 
X25.528 Y-0.277 Z-3.898 
X25.512 Y-0.179 Z-3.912 
X25.456 Y-0.097 Z-3.926 
X25.37 Y-0.046 Z-3.94 
X25.271 Y-0.037 Z-3.954 
X25.177 Y-0.07 Z-3.968 
X25.106 Y-0.14 Z-3.982 
X25.071 Y-0.233 Z-3.996 
X25.079 Y-0.332 Z-4.009 
X25.128 Y-0.419 Z-4.023 
X25.209 Y-0.477 Z-4.037 
X25.307 Y-0.495 Z-4.051 
X25.403 Y-0.47 Z-4.065 
X25.48 Y-0.406 Z-4.079 
X25.523 Y-0.316 Z-4.093 
X25.524 Y-0.217 Z-4.107 
X25.482 Y-0.126 Z-4.121 
X25.406 Y-0.062 Z-4.134 
X25.31 Y-0.035 Z-4.148 
X25.212 Y-0.052 Z-4.162 
X25.13 Y-0.108 Z-4.176 
X25.08 Y-0.194 Z-4.19 
X25.07 Y-0.293 Z-4.204 
X25.104 Y-0.387 Z-4.218 
X25.174 Y-0.458 Z-4.232 
X25.267 Y-0.493 Z-4.246 
X25.366 Y-0.485 Z-4.26 
X25.453 Y-0.436 Z-4.273 
X25.511 Y-0.354 Z-4.287 
X25.528 Y-0.256 Z-4.301 
X25.503 Y-0.16 Z-4.315 
X25.44 Y-0.083 Z-4.329 
X25.35 Y-0.041 Z-4.343 
X25.25 Y-0.04 Z-4.357 
X25.16 Y-0.082 Z-4.371 
X25.095 Y-0.158 Z-4.385 
X25.069 Y-0.254 Z-4.398 
X25.086 Y-0.352 Z-4.412 
X25.142 Y-0.434 Z-4.426 
X25.228 Y-0.484 Z-4.44 
X25.327 Y-0.493 Z-4.454 
X25.421 Y-0.46 Z-4.468 
X25.492 Y-0.389 Z-4.482 
X25.526 Y-0.296 Z-4.496 
X25.518 Y-0.197 Z-4.51 
X25.469 Y-0.11 Z-4.523 
X25.388 Y-0.053 Z-4.537 
X25.29 Y-0.035 Z-4.551 
X25.193 Y-0.06 Z-4.565 
X25.117 Y-0.124 Z-4.579 
X25.074 Y-0.214 Z-4.593 
Y-0.314 Z-4.607 
X25.116 Y-0.404 Z-4.621 
X25.192 Y-0.469 Z-4.635 
X25.288 Y-0.495 Z-4.648 
X25.386 Y-0.478 Z-4.662 
X25.468 Y-0.421 Z-4.676 
X25.518 Y-0.335 Z-4.69 
X25.527 Y-0.236 Z-4.704 
X25.493 Y-0.142 Z-4.718 
X25.423 Y-0.071 Z-4.732 
X25.329 Y-0.037 Z-4.746 
X25.23 Y-0.045 Z-4.76 
X25.144 Y-0.095 Z-4.774 
X25.086 Y-0.176 Z-4.787 
X25.069 Y-0.274 Z-4.801 
X25.094 Y-0.371 Z-4.815 
X25.158 Y-0.447 Z-4.829 
X25.248 Y-0.489 Z-4.843 
X25.348 Y-0.49 Z-4.857 
X25.438 Y-0.448 Z-4.871 
X25.502 Y-0.372 Z-4.885 
X25.528 Y-0.275 Z-4.899 
X25.511 Y-0.177 Z-4.912 
X25.454 Y-0.096 Z-4.926 
X25.368 Y-0.046 Z-4.94 
X25.269 Y-0.037 Z-4.954 
X25.175 Y-0.071 Z-4.968 
X25.105 Y-0.141 Z-4.982 
X25.071 Y-0.235 Z-4.996 
X25.079 Y-0.334 Z-5.01 
X25.129 Y-0.42 Z-5.024 
X25.21 Y-0.477 Z-5.037 
X25.308 Y-0.495 Z-5.051 
X25.405 Y-0.469 Z-5.065 
X25.481 Y-0.405 Z-5.079 
X25.523 Y-0.315 Z-5.093 
Y-0.215 Z-5.107 
X25.481 Y-0.125 Z-5.121 
X25.405 Y-0.061 Z-5.135 
X25.309 Y-0.035 Z-5.149 
X25.211 Y-0.052 Z-5.163 
X25.129 Y-0.11 Z-5.176 
X25.079 Y-0.196 Z-5.19 
X25.071 Y-0.295 Z-5.204 
X25.105 Y-0.389 Z-5.218 
X25.175 Y-0.459 Z-5.232 
X25.269 Y-0.493 Z-5.246 
X25.368 Y-0.484 Z-5.26 
X25.454 Y-0.434 Z-5.274 
X25.511 Y-0.353 Z-5.288 
X25.528 Y-0.255 Z-5.301 
X25.503 Y-0.158 Z-5.315 
X25.438 Y-0.082 Z-5.329 
X25.348 Y-0.04 Z-5.343 
X25.248 Z-5.357 
X25.158 Y-0.083 Z-5.371 
X25.094 Y-0.159 Z-5.385 
X25.069 Y-0.255 Z-5.399 
X25.086 Y-0.353 Z-5.413 
X25.144 Y-0.435 Z-5.426 
X25.23 Y-0.484 Z-5.44 
X25.329 Y-0.493 Z-5.454 
X25.423 Y-0.459 Z-5.468 
X25.493 Y-0.388 Z-5.482 
X25.527 Y-0.294 Z-5.496 
X25.518 Y-0.195 Z-5.51 
X25.468 Y-0.109 Z-5.524 
X25.386 Y-0.052 Z-5.538 
X25.288 Y-0.035 Z-5.551 
X25.192 Y-0.061 Z-5.565 
X25.116 Y-0.125 Z-5.579 
X25.074 Y-0.216 Z-5.593 
Y-0.315 Z-5.607 
X25.117 Y-0.406 Z-5.621 
X25.193 Y-0.469 Z-5.635 
X25.289 Y-0.495 Z-5.649 
X25.387 Y-0.477 Z-5.663 
X25.469 Y-0.42 Z-5.677 
X25.518 Y-0.333 Z-5.69 
X25.527 Y-0.234 Z-5.704 
X25.492 Y-0.141 Z-5.718 
X25.421 Y-0.07 Z-5.732 
X25.328 Y-0.037 Z-5.746 
X25.228 Y-0.046 Z-5.76 
X25.142 Y-0.096 Z-5.774 
X25.086 Y-0.178 Z-5.788 
X25.069 Y-0.276 Z-5.802 
X25.095 Y-0.372 Z-5.815 
X25.16 Y-0.448 Z-5.829 
X25.25 Y-0.49 Z-5.843 
X25.35 Y-0.489 Z-5.857 
X25.44 Y-0.447 Z-5.871 
X25.503 Y-0.37 Z-5.885 
X25.528 Y-0.274 Z-5.899 
X25.511 Y-0.176 Z-5.913 
X25.453 Y-0.094 Z-5.927 
X25.366 Y-0.045 Z-5.94 
X25.267 Y-0.037 Z-5.954 
X25.174 Y-0.072 Z-5.968 
X25.104 Y-0.143 Z-5.982 
X25.07 Y-0.236 Z-5.996 
X25.08 Y-0.335 Z-6.01 
X25.13 Y-0.421 Z-6.024 
X25.212 Y-0.478 Z-6.038 
X25.31 Y-0.495 Z-6.052 
X25.406 Y-0.468 Z-6.065 
X25.482 Y-0.404 Z-6.079 
X25.524 Y-0.313 Z-6.093 
X25.523 Y-0.214 Z-6.107 
X25.48 Y-0.124 Z-6.121 
X25.403 Y-0.06 Z-6.135 
X25.307 Y-0.035 Z-6.149 
X25.209 Y-0.053 Z-6.163 
X25.128 Y-0.111 Z-6.177 
X25.079 Y-0.197 Z-6.191 
X25.071 Y-0.297 Z-6.204 
X25.106 Y-0.39 Z-6.218 
X25.177 Y-0.46 Z-6.232 
X25.27 Y-0.493 Z-6.246 
X25.37 Y-0.484 Z-6.26 
X25.455 Y-0.433 Z-6.274 
X25.512 Y-0.351 Z-6.288 
X25.528 Y-0.253 Z-6.302 
X25.502 Y-0.157 Z-6.316 
X25.437 Y-0.081 Z-6.329 
X25.346 Y-0.04 Z-6.343 
X25.247 Y-0.041 Z-6.357 
X25.157 Y-0.084 Z-6.371 
X25.094 Y-0.161 Z-6.385 
X25.069 Y-0.257 Z-6.399 
X25.087 Y-0.355 Z-6.413 
X25.145 Y-0.436 Z-6.427 
X25.232 Y-0.485 Z-6.441 
X25.331 Y-0.493 Z-6.454 
X25.424 Y-0.458 Z-6.468 
X25.494 Y-0.387 Z-6.482 
X25.527 Y-0.293 Z-6.496 
X25.517 Y-0.194 Z-6.51 
X25.467 Y-0.108 Z-6.524 
X25.384 Y-0.052 Z-6.538 
X25.286 Y-0.035 Z-6.552 
X25.19 Y-0.062 Z-6.566 
X25.115 Y-0.127 Z-6.58 
X25.074 Y-0.218 Z-6.593 
X25.075 Y-0.317 Z-6.607 
X25.118 Y-0.407 Z-6.621 
X25.195 Y-0.47 Z-6.635 
X25.291 Y-0.495 Z-6.649 
X25.389 Y-0.476 Z-6.663 
X25.47 Y-0.418 Z-6.677 
X25.519 Y-0.332 Z-6.691 
X25.526 Y-0.232 Z-6.705 
X25.491 Y-0.139 Z-6.718 
X25.42 Y-0.07 Z-6.732 
X25.326 Y-0.037 Z-6.746 
X25.227 Y-0.046 Z-6.76 
X25.141 Y-0.097 Z-6.774 
X25.085 Y-0.18 Z-6.788 
X25.069 Y-0.278 Z-6.802 
X25.096 Y-0.374 Z-6.816 
X25.161 Y-0.449 Z-6.83 
X25.252 Y-0.49 Z-6.843 
X25.351 Y-0.489 Z-6.857 
X25.441 Y-0.446 Z-6.871 
X25.504 Y-0.369 Z-6.885 
X25.529 Y-0.272 Z-6.899 
X25.51 Y-0.174 Z-6.913 
X25.452 Y-0.093 Z-6.927 
X25.365 Y-0.045 Z-6.941 
X25.266 Y-0.037 Z-6.955 
X25.172 Y-0.073 Z-6.968 
X25.103 Y-0.144 Z-6.982 
X25.07 Y-0.238 Z-6.996 
X25.08 Y-0.337 Z-7.01 
X25.131 Y-0.423 Z-7.024 
X25.214 Y-0.479 Z-7.038 
X25.312 Y-0.495 Z-7.052 
X25.408 Y-0.467 Z-7.066 
X25.483 Y-0.402 Z-7.08 
X25.524 Y-0.311 Z-7.094 
X25.522 Y-0.212 Z-7.107 
X25.479 Y-0.122 Z-7.121 
X25.402 Y-0.059 Z-7.135 
X25.305 Y-0.035 Z-7.149 
X25.207 Y-0.054 Z-7.163 
X25.127 Y-0.112 Z-7.177 
X25.078 Y-0.199 Z-7.191 
X25.071 Y-0.298 Z-7.205 
X25.107 Y-0.391 Z-7.219 
X25.178 Y-0.461 Z-7.232 
X25.272 Y-0.493 Z-7.246 
X25.371 Y-0.483 Z-7.26 
X25.457 Y-0.432 Z-7.274 
X25.512 Y-0.35 Z-7.288 
X25.528 Y-0.251 Z-7.302 
X25.501 Y-0.155 Z-7.316 
X25.436 Y-0.08 Z-7.33 
X25.345 Y-0.04 Z-7.344 
X25.245 Y-0.041 Z-7.357 
X25.156 Y-0.085 Z-7.371 
X25.093 Y-0.162 Z-7.385 
X25.069 Y-0.259 Z-7.399 
X25.088 Y-0.357 Z-7.413 
X25.146 Y-0.437 Z-7.427 
X25.233 Y-0.485 Z-7.441 
X25.333 Y-0.492 Z-7.455 
X25.426 Y-0.457 Z-7.469 
X25.495 Y-0.385 Z-7.482 
X25.527 Y-0.291 Z-7.496 
X25.517 Y-0.192 Z-7.51 
X25.465 Y-0.107 Z-7.524 
X25.383 Y-0.051 Z-7.538 
X25.284 Y-0.035 Z-7.55 
X25.189 Y-0.063 
X25.114 Y-0.128 
X25.073 Y-0.219 
X25.075 Y-0.319 
X25.119 Y-0.408 
X25.196 Y-0.471 
X25.293 Y-0.495 
X25.391 Y-0.476 
X25.471 Y-0.417 
X25.519 Y-0.33 
X25.526 Y-0.231 
X25.49 Y-0.138 
X25.418 Y-0.069 
X25.324 Y-0.036 
X25.236 Y-0.095 
X25.257 Y-0.199 
X25.299 Y-0.265 
G0 Z31.001 
G0 X-21.479 Y13.369 
G0 Z0.7 
G1 X-21.249 F140 
X-21.271 Y13.467 Z0.686 
X-21.331 Y13.546 Z0.672 
X-21.42 Y13.592 Z0.658 
X-21.519 Y13.596 Z0.644 
X-21.611 Y13.558 Z0.631 
X-21.678 Y13.484 Z0.617 
X-21.708 Y13.389 Z0.603 
X-21.695 Y13.291 Z0.589 
X-21.641 Y13.207 Z0.575 
X-21.557 Y13.153 Z0.561 
X-21.459 Y13.14 Z0.547 
X-21.364 Y13.17 Z0.533 
X-21.29 Y13.238 Z0.519 
X-21.252 Y13.33 Z0.506 
X-21.257 Y13.429 Z0.492 
X-21.303 Y13.518 Z0.478 
X-21.382 Y13.578 Z0.464 
X-21.479 Y13.599 Z0.45 
X-21.577 Y13.578 Z0.436 
X-21.655 Y13.517 Z0.422 
X-21.701 Y13.429 Z0.408 
X-21.705 Y13.329 Z0.394 
X-21.667 Y13.237 Z0.38 
X-21.593 Y13.17 Z0.367 
X-21.498 Y13.14 Z0.353 
X-21.4 Y13.154 Z0.339 
X-21.316 Y13.207 Z0.325 
X-21.263 Y13.291 Z0.311 
X-21.25 Y13.39 Z0.297 
X-21.28 Y13.485 Z0.283 
X-21.348 Y13.558 Z0.269 
X-21.44 Y13.596 Z0.255 
X-21.539 Y13.591 Z0.242 
X-21.627 Y13.545 Z0.228 
X-21.688 Y13.466 Z0.214 
X-21.709 Y13.369 Z0.2 
X-21.687 Y13.271 Z0.186 
X-21.626 Y13.193 Z0.172 
X-21.538 Y13.147 Z0.158 
X-21.438 Y13.143 Z0.144 
X-21.346 Y13.182 Z0.13 
X-21.279 Y13.255 Z0.117 
X-21.25 Y13.35 Z0.103 
X-21.263 Y13.449 Z0.089 
X-21.317 Y13.533 Z0.075 
X-21.401 Y13.586 Z0.061 
X-21.5 Y13.599 Z0.047 
X-21.595 Y13.568 Z0.033 
X-21.668 Y13.5 Z0.019 
X-21.706 Y13.408 Z0.005 
X-21.701 Y13.309 Z-0.009 
X-21.654 Y13.221 Z-0.022 
X-21.575 Y13.161 Z-0.036 
X-21.478 Y13.139 Z-0.05 
X-21.381 Y13.162 Z-0.064 
X-21.302 Y13.223 Z-0.078 
X-21.256 Y13.311 Z-0.092 
X-21.253 Y13.411 Z-0.106 
X-21.291 Y13.503 Z-0.12 
X-21.365 Y13.569 Z-0.134 
X-21.46 Y13.599 Z-0.147 
X-21.559 Y13.585 Z-0.161 
X-21.643 Y13.531 Z-0.175 
X-21.696 Y13.447 Z-0.189 
X-21.708 Y13.348 Z-0.203 
X-21.677 Y13.253 Z-0.217 
X-21.61 Y13.18 Z-0.231 
X-21.517 Y13.143 Z-0.245 
X-21.418 Y13.148 Z-0.259 
X-21.33 Y13.194 Z-0.272 
X-21.27 Y13.274 Z-0.286 
X-21.249 Y13.371 Z-0.3 
X-21.271 Y13.468 Z-0.314 
X-21.332 Y13.547 Z-0.328 
X-21.421 Y13.592 Z-0.342 
X-21.521 Y13.596 Z-0.356 
X-21.612 Y13.557 Z-0.37 
X-21.679 Y13.483 Z-0.384 
X-21.708 Y13.388 Z-0.397 
X-21.694 Y13.289 Z-0.411 
X-21.64 Y13.205 Z-0.425 
X-21.556 Y13.153 Z-0.439 
X-21.457 Y13.141 Z-0.453 
X-21.362 Y13.171 Z-0.467 
X-21.289 Y13.239 Z-0.481 
X-21.252 Y13.332 Z-0.495 
X-21.257 Y13.431 Z-0.509 
X-21.304 Y13.519 Z-0.523 
X-21.384 Y13.579 Z-0.536 
X-21.481 Y13.599 Z-0.55 
X-21.578 Y13.577 Z-0.564 
X-21.657 Y13.516 Z-0.578 
X-21.702 Y13.427 Z-0.592 
X-21.705 Y13.327 Z-0.606 
X-21.666 Y13.236 Z-0.62 
X-21.592 Y13.169 Z-0.634 
X-21.497 Y13.14 Z-0.648 
X-21.398 Y13.154 Z-0.661 
X-21.315 Y13.209 Z-0.675 
X-21.262 Y13.293 Z-0.689 
X-21.25 Y13.392 Z-0.703 
